!!!!SEGMENT: pl-sa--165-a-iv-15--005_staromiejski-j--vesperae-de-sanctis-ex-c-laudate.krn
!!!cenid: 17xx:352
!!!COM: Staromiejski, J.
!!!COM-rismID:
!!!CDT: <1737->1737
!!!CNT:
!!!OPR: Vesperae de Sanctis ex C
!!!OTL: Laudate
!!!OMV: 005
!!!PDT:
!!!AGN: Sacred; Vespers
!!!SMS-siglum: PL-SA
!!!SMS-shelfmark: 165/A IV 15
!!!SMS-shelfwork: 001-005 M
!!!NIFC-rismSourceID: 1001077264
!!!NIFC-islandoraID:
!!!URL-pdf-islandora:
!!!URL-scan: https://bc.bdsandomierz.pl/dlibra/publication/1551/edition/1519/content @EN{Scan on Cyfrowa Biblioteka Diecezjalna w Sandomierzu} @PL{Skany w portalu Cyfrowa Biblioteka Diecezjalna w Sandomierzu}
!!!ONB-nifc: UWAGA: części Vesperae: Domine, Dixit Dominus, Confitebor, Beatus vir, Laudate, Laudate Dominum, Magnificat
!!!AIN: 1 alto 3 empty 1 organ 1 tenor 2 violn 1 vox
!!!key:
**kern	**fba	**kern	**kern	**kern	**text	**kern	**text	**kern	**text	**kern	**text	**kern	**kern
*part9	*	*part8	*part7	*part6	*part6	*part5	*part5	*part4	*part4	*part3	*part3	*part2	*part1
*staff9	*	*staff8	*staff7	*staff6	*staff6	*staff5	*staff5	*staff4	*staff4	*staff3	*staff3	*staff2	*staff1
*Iorgan	*	*Ivioln	*Ivioln	*Iempty	*	*Itenor	*	*Ialto	*	*Ivox	*	*Iempty	*Iempty
*I"Organo	*	*I"Violino Secundo.	*I"Violino Imo	*I"Baſso.	*	*I"Tenore	*	*I"Atto	*	*I"Canto	*	*I"Clarino Secundo	*I"Clarino. Imo
*I'Org.	*	*I'V-no II	*I'V-no I	*I'B.	*	*I'T.	*	*I'A.	*	*I'C.	*	*I'Cl. II	*I'Cl. I
*clefF4	*	*clefG2	*clefG2	*clefF4	*	*clefC4	*	*clefC3	*	*clefC1	*	*clefG2	*clefG2
*k[]	*	*k[]	*k[]	*k[]	*	*k[]	*	*k[]	*	*k[]	*	*k[]	*k[]
*C:	*	*C:	*C:	*C:	*	*C:	*	*C:	*	*C:	*	*C:	*C:
*M12/8	*	*M12/8	*M12/8	*M12/8	*	*M12/8	*	*M12/8	*	*M12/8	*	*M12/8	*M12/8
=1	=1	=1	=1	=1	=1	=1	=1	=1	=1	=1	=1	=1	=1
!LO:TX:t=P:problem=większość kaud zapisanych z prawej strony główki	!	!LO:TX:t=P:problem=większość kaud zapisanych z prawej strony główki	!LO:TX:t=P:problem=większość kaud zapisanych z prawej strony główki	!	!	!	!	!	!	!	!	!	!
!	!	!	!	!	!	!	!	!LO:TX:t=10	!	!	!	!LO:TX:t=17	!
8C\L	.	8c/L	8c/L	00.r	.	00.r	.	00.r	.	00.r	.	00.rcc	00.rcc
8E\	.	8e/	8e/	.	.	.	.	.	.	.	.	.	.
8G\J	.	8g/J	8g/J	.	.	.	.	.	.	.	.	.	.
4c\	.	8cc\L	8cc\L	.	.	.	.	.	.	.	.	.	.
.	.	16cc\L	16cc\L	.	.	.	.	.	.	.	.	.	.
.	.	16b\J	16b\J	.	.	.	.	.	.	.	.	.	.
8E\	.	8cc\J	8cc\J	.	.	.	.	.	.	.	.	.	.
8F\L	.	8a/L	8a/L	.	.	.	.	.	.	.	.	.	.
8E\	.	8g/	8g/	.	.	.	.	.	.	.	.	.	.
8D\J	.	8f/J	8f/J	.	.	.	.	.	.	.	.	.	.
4C/	.	16e/LL	16e/LL	.	.	.	.	.	.	.	.	.	.
.	.	16g/	16g/	.	.	.	.	.	.	.	.	.	.
.	.	16c/	16c/	.	.	.	.	.	.	.	.	.	.
.	.	16d/	16d/	.	.	.	.	.	.	.	.	.	.
8r	.	16e/	16e/	.	.	.	.	.	.	.	.	.	.
.	.	16f/JJ	16g/JJ	.	.	.	.	.	.	.	.	.	.
=2	=2	=2	=2	=2	=2	=2	=2	=2	=2	=2	=2	=2	=2
4c\	.	16e/LL	16e/LL	.	.	.	.	.	.	.	.	.	.
.	.	16g/	16g/	.	.	.	.	.	.	.	.	.	.
.	.	16c/	16c/	.	.	.	.	.	.	.	.	.	.
.	.	16d/	16d/	.	.	.	.	.	.	.	.	.	.
8A\	#6|	16e/	16e/	.	.	.	.	.	.	.	.	.	.
.	.	16f/JJ	16g/JJ	.	.	.	.	.	.	.	.	.	.
8G\L	.	4g/	4g/	.	.	.	.	.	.	.	.	.	.
16G\L	.	.	.	.	.	.	.	.	.	.	.	.	.
16F\J	.	.	.	.	.	.	.	.	.	.	.	.	.
8E\J	.	8G/	8G/	.	.	.	.	.	.	.	.	.	.
8F\L	.	8a/L	16e/LL	.	.	.	.	.	.	.	.	.	.
.	.	.	16g/	.	.	.	.	.	.	.	.	.	.
8E\	.	8g/	16a/	.	.	.	.	.	.	.	.	.	.
.	.	.	16b/	.	.	.	.	.	.	.	.	.	.
8D\J	.	8f/J	16cc/	.	.	.	.	.	.	.	.	.	.
.	.	.	16g/JJ	.	.	.	.	.	.	.	.	.	.
4C\	.	16e/LL	8a/L	.	.	.	.	.	.	.	.	.	.
.	.	32f/L	.	.	.	.	.	.	.	.	.	.	.
.	.	32g/J	.	.	.	.	.	.	.	.	.	.	.
.	.	16a/	8g/	.	.	.	.	.	.	.	.	.	.
.	.	16b/	.	.	.	.	.	.	.	.	.	.	.
8E\	.	16d/	8f/J	.	.	.	.	.	.	.	.	.	.
.	.	16e/JJ	.	.	.	.	.	.	.	.	.	.	.
=3	=3	=3	=3	=3	=3	=3	=3	=3	=3	=3	=3	=3	=3
4D\	.	16f/LL	16f/LL	.	.	.	.	.	.	.	.	.	.
.	.	16e/	16e/	.	.	.	.	.	.	.	.	.	.
.	.	16f/	16f/	.	.	.	.	.	.	.	.	.	.
.	.	16d/	16d/	.	.	.	.	.	.	.	.	.	.
8BB/	.	16g/	16g/	.	.	.	.	.	.	.	.	.	.
.	.	16f/JJ	16f/JJ	.	.	.	.	.	.	.	.	.	.
4C\	.	8e/L	8e/L	.	.	.	.	.	.	.	.	.	.
.	.	16d/L	16d/L	.	.	.	.	.	.	.	.	.	.
.	.	16e/J	16e/J	.	.	.	.	.	.	.	.	.	.
8E\	.	8c/J	8c/J	.	.	.	.	.	.	.	.	.	.
8F\L	6	16a\LL	16a\LL	.	.	.	.	.	.	.	.	.	.
.	.	16cc\	16cc\	.	.	.	.	.	.	.	.	.	.
8F\	.	16ee\	16ff\	.	.	.	.	.	.	.	.	.	.
.	.	16aa\J	16aa\J	.	.	.	.	.	.	.	.	.	.
8F\J	.	8a\J	8a\J	.	.	.	.	.	.	.	.	.	.
!	!	!	!LO:PB:g=original	!	!	!	!	!	!	!	!	!	!
4F\	.	8a/L	8a/L	.	.	.	.	.	.	.	.	.	.
.	.	16g/L	16g/L	.	.	.	.	.	.	.	.	.	.
.	.	16f/J	16f/J	.	.	.	.	.	.	.	.	.	.
8r	.	8g/J	8g/J	.	.	.	.	.	.	.	.	.	.
!	!	!LO:LB:g=original	!	!	!	!	!	!	!	!	!	!	!
=4	=4	=4	=4	=4	=4	=4	=4	=4	=4	=4	=4	=4	=4
!	!	!	!LO:TX:a:t=P:problem=mixed beam	!	!	!	!	!	!	!	!	!	!
!	!	!LO:TX:a:t=P:problem=mixed beam	!	!	!	!	!	!	!	!	!	!	!
8E\L	6	16g\LL	16g\LL	.	.	.	.	.	.	.	.	.	.
.	.	16b\	16cc\	.	.	.	.	.	.	.	.	.	.
8E\	.	16dd\	16ee\	.	.	.	.	.	.	.	.	.	.
.	.	16gg\J	16gg\J	.	.	.	.	.	.	.	.	.	.
8E\J	.	8g/J	8g/J	.	.	.	.	.	.	.	.	.	.
4E\	.	8g/L	8g/L	.	.	.	.	.	.	.	.	.	.
.	.	16f/L	16f/L	.	.	.	.	.	.	.	.	.	.
.	.	16e/J	16e/J	.	.	.	.	.	.	.	.	.	.
8r	.	8f/J	8f/J	.	.	.	.	.	.	.	.	.	.
!	!	!	!LO:TX:a:t=P:problem=mixed beam	!	!	!	!	!	!	!	!	!	!
!	!	!LO:TX:a:t=P:problem=mixed beam	!	!	!	!	!	!	!	!	!	!	!
8D\L	6	16f\LL	16f\LL	.	.	.	.	.	.	.	.	.	.
.	.	16a\	16b\	.	.	.	.	.	.	.	.	.	.
8D\	.	16dd\	16dd\	.	.	.	.	.	.	.	.	.	.
.	.	16ff\J	16ff\J	.	.	.	.	.	.	.	.	.	.
8D\J	.	8f/J	8f/J	.	.	.	.	.	.	.	.	.	.
4D\	.	8f/L	8f/L	.	.	.	.	.	.	.	.	.	.
.	.	16e/L	16e/L	.	.	.	.	.	.	.	.	.	.
.	.	16d/J	16d/J	.	.	.	.	.	.	.	.	.	.
8r	.	8e/J	8e/J	.	.	.	.	.	.	.	.	.	.
!LO:LB:g=original	!	!	!	!	!	!	!	!	!	!	!	!	!
=5	=5	=5	=5	=5	=5	=5	=5	=5	=5	=5	=5	=5	=5
8C\L	.	16e/LL	16e/LL	1.r	.	00.r	.	00.r	.	00.r	.	00.rcc	00.rcc
.	.	16g/	16g/	.	.	.	.	.	.	.	.	.	.
8F\	.	16a/	16a/	.	.	.	.	.	.	.	.	.	.
.	.	16b/	16b/	.	.	.	.	.	.	.	.	.	.
8E\J	.	16cc/	16cc/	.	.	.	.	.	.	.	.	.	.
.	.	16e/JJ	16e/JJ	.	.	.	.	.	.	.	.	.	.
4F\	.	16f/LL	16f/LL	.	.	.	.	.	.	.	.	.	.
.	.	16g/	16g/	.	.	.	.	.	.	.	.	.	.
.	.	16a/	16a/	.	.	.	.	.	.	.	.	.	.
.	.	16b/	16b/	.	.	.	.	.	.	.	.	.	.
8E\	.	16cc/	16cc/	.	.	.	.	.	.	.	.	.	.
.	.	16e/JJ	16e/JJ	.	.	.	.	.	.	.	.	.	.
16F\LL	.	16f/LL	16f/LL	.	.	.	.	.	.	.	.	.	.
16E\	.	16e/	16e/	.	.	.	.	.	.	.	.	.	.
16F\	.	16f/	16f/	.	.	.	.	.	.	.	.	.	.
16D\	.	16d/	16d/	.	.	.	.	.	.	.	.	.	.
16G\	.	16g/	16g/	.	.	.	.	.	.	.	.	.	.
16F\JJ	.	16f/JJ	16f/JJ	.	.	.	.	.	.	.	.	.	.
16E\LL	.	16e/LL	16e/LL	.	.	.	.	.	.	.	.	.	.
16F\JJ	.	16f/J	16f/J	.	.	.	.	.	.	.	.	.	.
!LO:TX:a:t=P:problem=mixed beam	!	!	!	!	!	!	!	!	!	!	!	!	!
8G\L	.	8g/	8g/	.	.	.	.	.	.	.	.	.	.
8GG/J	.	8G/J	8G/J	.	.	.	.	.	.	.	.	.	.
=6	=6	=6	=6	=6	=6	=6	=6	=6	=6	=6	=6	=6	=6
!	!	!	!	!LO:TX:t=P:problem=większość kaud zapisanych z prawej strony główki	!	!	!	!	!	!	!	!	!
4C/	.	4c/	8c/L	8C\	Lau-	.	.	.	.	.	.	.	.
.	.	.	8e/	8E\	-da-	.	.	.	.	.	.	.	.
8r	.	8r	8g/J	8G\	-te	.	.	.	.	.	.	.	.
4r	.	8e/L	8cc\L	8c\	Pu-	.	.	.	.	.	.	.	.
!	!	!	!LO:TX:a:t=c	!	!	!	!	!	!	!	!	!	!
.	.	16e/L	16cc\L	16c\L	-e-	.	.	.	.	.	.	.	.
.	.	16d/J	16b\J	16B\J	.	.	.	.	.	.	.	.	.
8r	.	8e/J	8cc\J	8c\	-ri	.	.	.	.	.	.	.	.
!LO:TX:t=P:problem=w takcie jest za mało wartości rytmicznych w stosunku do metrum	!	!	!	!	!	!	!	!	!	!	!	!	!
!LO:N:vis=2	!	!	!	!	!	!	!	!	!	!	!	!	!
2.r	.	8f/L	8a/L	8A\	lau-	.	.	.	.	.	.	.	.
.	.	8e/	8g/	8G\	-da-	.	.	.	.	.	.	.	.
.	.	8d/J	8f/J	8F\	-te	.	.	.	.	.	.	.	.
.	.	4c/	16e/LL	16E\LL	no-	.	.	.	.	.	.	.	.
.	.	.	16g/	16G\	.	.	.	.	.	.	.	.	.
.	.	.	16c/	16C\	.	.	.	.	.	.	.	.	.
.	.	.	16d/	16D\	.	.	.	.	.	.	.	.	.
.	.	8r	16e/	16E\	.	.	.	.	.	.	.	.	.
.	.	.	16g/JJ	16F\JJ	.	.	.	.	.	.	.	.	.
!	!	!	!LO:LB:g=original	!	!	!	!	!	!	!	!	!	!
=7	=7	=7	=7	=7	=7	=7	=7	=7	=7	=7	=7	=7	=7
1.r	.	16c/LL	16e/LL	16E\LL	.	.	.	.	.	.	.	.	.
.	.	16c/	16g/	16G\	.	.	.	.	.	.	.	.	.
.	.	16B/	16c/	16C\	.	.	.	.	.	.	.	.	.
.	.	16c/	16d/	16D\	.	.	.	.	.	.	.	.	.
.	.	16A/	16e/	16E\	.	.	.	.	.	.	.	.	.
.	.	16B/JJ	16f#X/JJ	16F\JJ	-men	.	.	.	.	.	.	.	.
.	.	4.e/	4g/	8.G\	Do-	.	.	.	.	.	.	.	.
.	.	.	.	16GG/	-mi-	.	.	.	.	.	.	.	.
.	.	.	8G/	8GG/	-ni	.	.	.	.	.	.	.	.
.	.	8f/L	8a/L	8A\	lau-	.	.	.	.	.	.	.	.
.	.	8e/	8g/	8G\	-da-	.	.	.	.	.	.	.	.
.	.	8d/J	8f#/J	8Fn\	-te	.	.	.	.	.	.	.	.
.	.	8c/L	16e/LL	16E\LL	no-	.	.	.	.	.	.	.	.
.	.	.	32f#/	16G\	.	.	.	.	.	.	.	.	.
.	.	.	32g/	.	.	.	.	.	.	.	.	.	.
.	.	8f/	16a/	16A\	.	.	.	.	.	.	.	.	.
.	.	.	16b/	16B\	.	.	.	.	.	.	.	.	.
.	.	8e/J	16cc/	16c\	.	.	.	.	.	.	.	.	.
.	.	.	16e/JJ	16G\JJ	-men	.	.	.	.	.	.	.	.
=8	=8	=8	=8	=8	=8	=8	=8	=8	=8	=8	=8	=8	=8
*	*	*	*	*	*ij	*	*	*	*	*	*	*	*
!LO:TX:t=P:problem=w takcie jest za mało wartości rytmicznych w stosunku do metrum	!	!	!	!	!	!	!	!	!	!	!	!	!
!LO:N:vis=2	!	!LO:TX:a:t=P:problem=mixed beam	!	!	!	!	!	!	!	!	!	!	!
2.r	.	8d/L	16f/LL	16F\LL	no-	.	.	.	.	.	.	.	.
.	.	.	16e/	16E\	.	.	.	.	.	.	.	.	.
.	.	8dd\	16f/	16F\	.	.	.	.	.	.	.	.	.
.	.	.	16d/	16D\	.	.	.	.	.	.	.	.	.
.	.	8b\J	16g/	16G\	.	.	.	.	.	.	.	.	.
.	.	.	16f/JJ	16F\JJ	-men	.	.	.	.	.	.	.	.
*	*	*	*	*	*Xij	*	*	*	*	*	*	*	*
!	!	!LO:LB:g=original	!	!LO:LB:g=original	!	!	!	!	!	!	!	!	!
.	.	8cc\L	8e/L	8.E\	Do-	.	.	.	.	.	.	.	.
.	.	8g\	16d/L	.	.	.	.	.	.	.	.	.	.
.	.	.	16e/J	16D\	-mi-	.	.	.	.	.	.	.	.
.	.	8e\J	8c/J	8C\	-ni	.	.	.	.	.	.	.	.
8F\L	.	8f/L	16a\LL	8A\	lau-	.	.	.	.	.	.	.	.
.	.	.	16cc\	.	.	.	.	.	.	.	.	.	.
8F\	.	8f/	16ff\	8A\	-da-	.	.	.	.	.	.	.	.
.	.	.	16aa\J	.	.	.	.	.	.	.	.	.	.
!	!	!	!LO:TX:a:t=a	!	!	!	!	!	!	!	!	!	!
8F\J	.	8f/J	8a\J	8A\	-te	.	.	.	.	.	.	.	.
4F\	.	8f/L	8a/L	8A\L	no-	.	.	.	.	.	.	.	.
.	.	16e/L	16g/L	16G\	.	.	.	.	.	.	.	.	.
.	.	16d/J	16f/J	16F\J	.	.	.	.	.	.	.	.	.
8r	.	8f/J	8g/J	8G\	-men	.	.	.	.	.	.	.	.
=9	=9	=9	=9	=9	=9	=9	=9	=9	=9	=9	=9	=9	=9
*	*	*	*	*	*ij	*	*	*	*	*	*	*	*
8C/L	.	8e/L	16g\LL	8G\	lau-	00.rc	.	0.r	.	0.r	.	00.ree	00.ree
.	.	.	16cc\	.	.	.	.	.	.	.	.	.	.
8C/	.	8e/	16ee\	8G\	-da-	.	.	.	.	.	.	.	.
.	.	.	16gg\J	.	.	.	.	.	.	.	.	.	.
8C/J	.	8e/J	8g\J	8G\	-te	.	.	.	.	.	.	.	.
4C/	.	8e/L	8g/L	8G\L	no-	.	.	.	.	.	.	.	.
.	.	16d/L	16f/L	16F\	.	.	.	.	.	.	.	.	.
.	.	16c/J	16e/J	16E\J	.	.	.	.	.	.	.	.	.
8r	.	8d/J	8f/J	8F\	-men	.	.	.	.	.	.	.	.
*	*	*	*	*	*Xij	*	*	*	*	*	*	*	*
*	*	*	*	*	*ij	*	*	*	*	*	*	*	*
!	!	!	!LO:TX:a:t=P:problem=mixed beam	!	!	!	!	!	!	!	!	!	!
8B\L	.	8d/L	16f\LL	8F\	lau-	.	.	.	.	.	.	.	.
.	.	.	16b\	.	.	.	.	.	.	.	.	.	.
8B\	.	8d/	16dd\	8F\	-da-	.	.	.	.	.	.	.	.
.	.	.	16ff\J	.	.	.	.	.	.	.	.	.	.
8B\J	.	8d/J	8f/J	8F\	-te	.	.	.	.	.	.	.	.
4B\	.	8d/L	8f/L	8F\L	no-	.	.	.	.	.	.	.	.
.	.	16c/L	16e/L	16E\	.	.	.	.	.	.	.	.	.
.	.	16B/J	16d/J	16D\J	.	.	.	.	.	.	.	.	.
8r	.	8c/J	8e/J	8E\	-men	.	.	.	.	.	.	.	.
*	*	*	*	*	*Xij	*	*	*	*	*	*	*	*
!	!	!	!LO:LB:g=original	!	!	!	!	!	!	!	!	!	!
=10	=10	=10	=10	=10	=10	=10	=10	=10	=10	=10	=10	=10	=10
!	!	!	!LO:TX:a:t=P:problem=mixed beam	!	!	!	!	!	!	!	!	!	!
4c\	.	4e/	8c/L	8c\	lau-	.	.	.	.	.	.	.	.
.	.	.	8cc\	8c\	-da-	.	.	.	.	.	.	.	.
8r	.	8r	8b\J	8B\	-te	.	.	.	.	.	.	.	.
4C/	.	4e/	8a\L	8A\L	no-	.	.	.	.	.	.	.	.
.	.	.	16cc\L	16c\L	.	.	.	.	.	.	.	.	.
.	.	.	16b\	16B\	.	.	.	.	.	.	.	.	.
8r	.	8r	16a\	16A\	.	.	.	.	.	.	.	.	.
.	.	.	16g\JJ	16G\JJ	-men	.	.	.	.	.	.	.	.
*	*	*	*	*	*ij	*	*	*	*	*	*	*	*
8D\L	#	4f#X/	4f#X/	4F#X\	no-	.	.	.	.	.	.	.	.
8C\	.	.	.	.	.	.	.	.	.	.	.	.	.
8BB\J	.	8g/	8g/	8G\	-men	.	.	.	.	.	.	.	.
*	*	*	*	*	*Xij	*	*	*	*	*	*	*	*
8C/L	.	8a/L	8a/L	8A\L	Do-	.	.	.	.	.	.	.	.
8D/	.	8d/	8d/	8D\J	.	.	.	.	.	.	.	.	.
8DD/J	.	8e/J	8f#X/J	8F#X\	-mi-	.	.	.	.	.	.	.	.
!	!	!	!	!LO:LB:g=original	!	!	!	!	!	!	!	!	!
=11	=11	=11	=11	=11	=11	=11	=11	=11	=11	=11	=11	=11	=11
!	!	!	!	!	!	!	!	!LO:TX:t=P:problem=większość kaud zapisanych z prawej strony główki	!	!LO:TX:t=P:problem=większość kaud zapisanych z prawej strony główki	!	!	!
!	!	!	!	!	!	!	!	!	!	!LO:TX:a:t=all(egro)	!	!	!
4GG/	.	4g/	4g/	4.G\	-ni	.	.	8g\	Sit	8b\	Sit	.	.
.	.	.	.	.	.	.	.	8g\	no-	8b\	no-	.	.
8r	.	8r	8r	.	.	.	.	8g\	-men	8b\	-men	.	.
*	*	*	*	*	*	*	*	*	*	*8\right	*	*	*
4r	.	4d/	4d/	4r	.	.	.	8g\	Do-	8b\	Do-	.	.
*	*	*	*	*	*	*	*	*	*	*16\right	*	*	*
.	.	.	.	.	.	.	.	16f#X\LL	-mi-	16aL\	-mi-	.	.
.	.	.	.	.	.	.	.	16e\JJ	.	16gJ\	.	.	.
8r	.	8r	8r	8r	.	.	.	8f#\	-ni	8a\	-ni	.	.
!LO:N:vis=2	!	!	!	!LO:N:vis=2	!	!	!	!	!	!	!	!	!
!LO:TX:t=P:problem=w takcie jest za mało wartości rytmicznych w stosunku do metrum	!	!	!	!LO:TX:t=P:problem=w takcie jest za mało wartości rytmicznych w stosunku do metrum	!	!	!	!	!	!	!	!	!
2.r	.	8a/L	8a/L	2.r	.	.	.	8a\	sit	8cc\	sit	.	.
.	.	8g/	8g/	.	.	.	.	8g\	be-	8b\	be-	.	.
.	.	8f#X/J	8f#X/J	.	.	.	.	8f#X\	-ne-	8a\	-ne-	.	.
.	.	8g/L	8g/L	.	.	.	.	8g\	-dic-	8b\	-dic-	.	.
.	.	16d/L	16d/L	.	.	.	.	8f#\	-tum	8a\	-tum	.	.
.	.	16c/	16c/	.	.	.	.	.	.	.	.	.	.
.	.	16B/	16B/	.	.	.	.	8r	.	8r	.	.	.
.	.	16A/JJ	16A/JJ	.	.	.	.	.	.	.	.	.	.
!LO:LB:g=original	!	!	!	!	!	!	!	!	!	!	!	!	!
=12	=12	=12	=12	=12	=12	=12	=12	=12	=12	=12	=12	=12	=12
0.r	.	4G/	4G/	00.r	.	.	.	4r	.	4d/	ex	.	.
!	!	!	!	!	!	!	!	!LO:N:vis=8	!	!	!	!	!
!	!	!	!	!	!	!	!	!LO:TX:t=P:problem=w takcie jest za mało wartości rytmicznych w stosunku do metrum	!	!	!	!	!
.	.	8r	8r	.	.	.	.	4r	.	8g\	hoc	.	.
.	.	4G/	4G/	.	.	.	.	.	.	4.e/	nunc	.	.
.	.	.	.	.	.	.	.	4G/	ex	.	.	.	.
.	.	8c/	8c/	.	.	.	.	.	.	.	.	.	.
*	*	*	*	*	*	*	*	*	*	*	*ij	*	*
.	.	4A/	4A/	.	.	.	.	8c\	hoc	8e/	ex	.	.
.	.	.	.	.	.	.	.	4A/	nunc	8a\	hoc	.	.
!	!	!	!	!	!	!	!	!	!	!LO:TX:t=P:problem=w takcie jest za mało wartości rytmicznych w stosunku do metrum	!	!	!
!	!	!	!	!	!	!	!	!	!	!LO:N:vis=4.	!	!	!
.	.	8r	8r	.	.	.	.	.	.	2f#/	nunc	.	.
*	*	*	*	*	*	*	*	*	*ij	*	*Xij	*	*
.	.	8A/	4A/	.	.	.	.	4A/	ex	.	.	.	.
.	.	4d/	.	.	.	.	.	.	.	.	.	.	.
.	.	.	8d/	.	.	.	.	8d\	hoc	.	.	.	.
=13	=13	=13	=13	=13	=13	=13	=13	=13	=13	=13	=13	=13	=13
*	*	*	*	*	*	*	*	*	*	*	*ij	*	*
.	.	4B/	4B/	.	.	00.rc	.	4.B/	nunc	4f\	ex	00.ree	00.ree
*	*	*	*	*	*	*	*	*	*Xij	*	*	*	*
.	.	8r	8r	.	.	.	.	.	.	8b\	hoc	.	.
*	*	*	*	*	*	*	*	*	*ij	*	*	*	*
.	.	4B/	4B/	.	.	.	.	4B/	ex	4.g\	nunc	.	.
*	*	*	*	*	*	*	*	*	*	*	*Xij	*	*
!	!	!LO:LB:g=original	!	!	!	!	!	!	!	!	!	!	!
.	.	8e/	8e/	.	.	.	.	8e\	hoc	.	.	.	.
*	*	*	*	*	*	*	*	*	*	*	*ij	*	*
.	.	4c/	4c/	.	.	.	.	4.c\	nunc	8g\	ex	.	.
*	*	*	*	*	*	*	*	*	*Xij	*	*	*	*
!	!	!	!	!	!	!	!	!	!	!LO:LB:g=original	!	!	!
.	.	.	.	.	.	.	.	.	.	8cc\	hoc	.	.
!	!	!	!	!	!	!	!	!	!	!LO:TX:t=P:problem=w takcie jest za mało wartości rytmicznych w stosunku do metrum	!	!	!
!	!	!	!	!	!	!	!	!	!	!LO:N:vis=4.	!	!	!
.	.	8r	8r	.	.	.	.	.	.	2a\	nunc	.	.
*	*	*	*	*	*	*	*	*	*ij	*	*Xij	*	*
.	.	4c/	4c/	.	.	.	.	4c\	ex	.	.	.	.
.	.	8f#X/	8f#X/	.	.	.	.	8f#X\	hoc	.	.	.	.
=14	=14	=14	=14	=14	=14	=14	=14	=14	=14	=14	=14	=14	=14
*	*	*	*	*	*	*	*	*	*	*	*ij	*	*
!LO:TX:t=P:problem=w takcie jest za mało wartości rytmicznych w stosunku do metrum	!	!	!	!	!	!	!	!	!	!	!	!	!
!LO:N:vis=2	!	!	!	!	!	!	!	!	!	!	!	!	!
2.r	.	4f/	4d/	.	.	.	.	4.d\	nunc	4a\	ex	.	.
*	*	*	*	*	*	*	*	*	*Xij	*	*	*	*
.	.	8r	8r	.	.	.	.	.	.	8dd\	hoc	.	.
*	*	*	*	*	*	*	*	*	*ij	*	*	*	*
!	!	!	!	!	!	!	!	!LO:LB:g=original	!	!	!	!	!
.	.	4d/	4d/	.	.	.	.	4d\	ex	4b\	nunc	.	.
*	*	*	*	*	*	*	*	*	*	*	*Xij	*	*
.	.	8g/	8g/	.	.	.	.	8g\	hoc	8ee\	us-	.	.
!	!	!	!LO:LB:g=original	!	!	!	!	!	!	!	!	!	!
!	!	!LO:TX:a:t=P:problem=mixed beam	!LO:TX:a:t=P:problem=mixed beam	!	!	!	!	!	!	!	!	!	!
8C/L	.	8c/L	16e\LL	.	.	.	.	8b\	nunc	8ee\	-que	.	.
*	*	*	*	*	*	*	*	*	*Xij	*	*	*	*
.	.	.	16g\	.	.	.	.	.	.	.	.	.	.
8C/	.	8cc\	16cc\	.	.	.	.	8cc\	us-	8ee\	in	.	.
.	.	.	16ee\J	.	.	.	.	.	.	.	.	.	.
8C/J	.	8cc\J	8e/J	.	.	.	.	8cc\	-que	8ee\	sae-	.	.
4C/	.	8cc\L	8ee\L	.	.	.	.	8cc\	in	16ddL\	-cu-	.	.
.	.	.	.	.	.	.	.	.	.	16ccJ\	.	.	.
!	!	!	!	!	!	!	!	!	!	!LO:TX:t=P:problem=w takcie jest za mało wartości rytmicznych w stosunku do metrum	!	!	!
!	!	!	!	!	!	!	!	!	!	!LO:N:vis=8	!	!	!
.	.	16b\L	16dd\L	.	.	.	.	16b\L	sae-	4dd\	-lum	.	.
.	.	16a\J	16cc\J	.	.	.	.	16a\J	-cu-	.	.	.	.
8r	.	8b\J	8dd\J	.	.	.	.	8b\	-lum	.	.	.	.
=15	=15	=15	=15	=15	=15	=15	=15	=15	=15	=15	=15	=15	=15
*	*	*	*	*	*	*	*	*	*ij	*	*ij	*	*
8GG/L	.	8b\L	16e/LL	.	.	.	.	8b\	us-	8dd\	us-	.	.
.	.	.	16g/	.	.	.	.	.	.	.	.	.	.
8GG/	.	8b\	16b/	.	.	.	.	8b\	-que	8dd\	-que	.	.
.	.	.	16dd/JJ	.	.	.	.	.	.	.	.	.	.
8GG/J	.	8b\J	8d/	.	.	.	.	8b\	in	8dd\	in	.	.
4GG/	.	8b\L	8dd\L	.	.	.	.	8b\	sae-	8dd\	sae-	.	.
.	.	16a\L	16cc\L	.	.	.	.	16a\L	-cu-	16cc\LL	-cu-	.	.
.	.	16g\J	16b\J	.	.	.	.	16g\J	.	16b\JJ	.	.	.
!	!	!	!	!	!	!	!	!LO:TX:a:t=P:problem=tu raczej brakuje ósemki	!	!	!	!	!
8r	.	8a\J	8cc\J	.	.	.	.	8a\	-lum	8cc\	-lum	.	.
*	*	*	*	*	*	*	*	*	*Xij	*	*Xij	*	*
*	*	*	*	*	*	*	*	*	*ij	*	*ij	*	*
8F#X\L	6	8a\L	16c/L	.	.	.	.	8a\	us-	8cc\	us-	.	.
.	.	.	16e/	.	.	.	.	.	.	.	.	.	.
8F#\	.	8a\	16g/	.	.	.	.	8a\	-que	8cc\	-que	.	.
.	.	.	16cc/J	.	.	.	.	.	.	.	.	.	.
8F#\J	.	8a\J	8c/	.	.	.	.	8a\	in	8cc\	in	.	.
4D\	.	8a\L	8cc\L	.	.	.	.	16g\L	sae-	8cc\	sae-	.	.
.	.	.	.	.	.	.	.	16f#\J	-cu-	.	.	.	.
!	!	!	!	!	!	!	!	!LO:TX:t=P:problem=w takcie jest za mało wartości rytmicznych w stosunku do metrum	!	!	!	!	!
!	!	!	!	!	!	!	!	!LO:N:vis=8	!	!	!	!	!
.	.	16g\L	16b\L	.	.	.	.	4g\	lum	16b\LL	-cu-	.	.
*	*	*	*	*	*	*	*	*	*Xij	*	*	*	*
.	.	16f#X\J	16a\J	.	.	.	.	.	.	16a\JJ	.	.	.
8G\	.	8g\J	8b\J	.	.	.	.	.	.	8b\	-lum	.	.
*	*	*	*	*	*	*	*	*	*	*	*Xij	*	*
=16	=16	=16	=16	=16	=16	=16	=16	=16	=16	=16	=16	=16	=16
4BB/	6	1.r	1.r	0.r	.	.	.	8r	.	16dd\LL	lau-	.	.
.	.	.	.	.	.	.	.	.	.	16cc\	.	.	.
.	.	.	.	.	.	.	.	8r	.	16b\JJ	.	.	.
.	.	.	.	.	.	.	.	.	.	16a\LL	.	.	.
4BB/	5	.	.	.	.	.	.	8d\	lau-	16g\	.	.	.
.	.	.	.	.	.	.	.	.	.	16f#\JJ	.	.	.
.	.	.	.	.	.	.	.	8d\L	-da-	8f#/L	-da-	.	.
4C/	.	.	.	.	.	.	.	16c\	.	16e/L	-bi-	.	.
.	.	.	.	.	.	.	.	16B\J	.	16d/JJ	.	.	.
.	.	.	.	.	.	.	.	8c\	-te	8e/	-le	.	.
*	*	*	*	*	*	*	*	*	*	*	*ij	*	*
8r	.	.	.	.	.	.	.	8r	.	16ee\LL	lau-	.	.
.	.	.	.	.	.	.	.	.	.	16dd\	.	.	.
4C/	6	.	.	.	.	.	.	8r	.	16cc\	.	.	.
.	.	.	.	.	.	.	.	.	.	16b\	.	.	.
*	*	*	*	*	*	*	*	*	*ij	*	*	*	*
.	.	.	.	.	.	.	.	8e\	lau-	16a\	.	.	.
.	.	.	.	.	.	.	.	.	.	16g\JJ	.	.	.
8C/	5	.	.	.	.	.	.	8e\L	-da-	8g/L	-da-	.	.
4D\	#	.	.	.	.	.	.	16d\	.	16f#X/L	-bi-	.	.
!	!	!	!	!	!	!	!	!LO:TX:a:t=P:problem=krzyżyk nad nutą	!	!	!	!	!
.	.	.	.	.	.	.	.	16c#\J	.	16e/JJ	.	.	.
!	!	!	!	!	!	!	!	!	!	!LO:LB:g=original	!	!	!
.	.	.	.	.	.	.	.	8d\	-te	8f#/	-le	.	.
!	!	!	!	!	!	!	!	!LO:LB:g=original	!	!	!	!	!
*	*	*	*	*	*	*	*	*	*Xij	*	*Xij	*	*
=17	=17	=17	=17	=17	=17	=17	=17	=17	=17	=17	=17	=17	=17
!	!	!	!	!	!	!LO:N:vis=1	!	!	!	!	!	!	!
1.r	.	4d/	4f#X/	.	.	1.rf	.	4f#X\	no-	4a\	no-	1.rff	1.rff
.	.	8d/	8g/	.	.	.	.	8g\	-men	8b-X\	-men	.	.
*	*	*	*	*	*	*	*	*	*ij	*	*ij	*	*
.	.	4d/	4d/	.	.	.	.	4d\	no-	4f#\	no-	.	.
.	.	8B/	8e/	.	.	.	.	8e-X\	-men	8g\	-men	.	.
*	*	*	*	*	*	*	*	*	*Xij	*	*Xij	*	*
.	.	8c/L	8c/L	.	.	.	.	8r	.	4g\	Do-	.	.
.	.	8d/	8d/	.	.	.	.	8c\L	Do-	.	.	.	.
.	.	8d/J	8d/J	.	.	.	.	8d\J	.	8f#X/	-mi-	.	.
.	.	4G/	4G/	.	.	.	.	8c\	-mi-	4g\	-ni	.	.
.	.	.	.	.	.	.	.	8B/	-ni	.	.	.	.
.	.	8r	8r	.	.	.	.	8r	.	8r	.	.	.
!	!	!	!	!	!	!	!	!	!	!	!	!LO:LB:g=original	!
=18	=18	=18	=18	=18	=18	=18	=18	=18	=18	=18	=18	=18	=18
!	!	!LO:TX:t=P:problem=w takcie jest za mało wartości rytmicznych w stosunku do metrum	!LO:TX:t=P:problem=w takcie jest za mało wartości rytmicznych w stosunku do metrum	!	!	!	!	!	!	!	!	!LO:TX:t=P:problem=w takcie jest za mało wartości rytmicznych w stosunku do metrum	!LO:TX:t=P:problem=w takcie jest za mało wartości rytmicznych w stosunku do metrum
!	!	!LO:N:vis=2	!LO:N:vis=2	!	!	!LO:TX:t=P:problem=większość kaud zapisanych z prawej strony główki	!	!	!	!	!	!LO:N:vis=2	!LO:N:vis=2
8GG/L	.	2.r	2.r	8GG/	a	8c\	a	8g\	a	8bn\	a	2.r	2.rg
8BB/	.	.	.	8BB/	so-	8d\	so-	8g\	so-	8g\	so-	.	.
8D/J	.	.	.	8D\	-lis	8d\	-lis	8f#X\	-lis	8a\	-lis	.	.
8G\L	.	.	.	8G\L	o-	4d\	o-	8g\L	o-	8b\L	o-	.	.
8F#X\	.	.	.	8F#X\J	.	.	.	8a\	.	8a\J	.	.	.
8G\J	.	.	.	8G\	-rtu	8d\	-rtu	8g\J	-rtu	8b\	-rtu	.	.
!	!	!	!	!	!	!	!	!	!	!	!	!LO:TX:t=P:problem=większość kaud zapisanych z prawej strony główki	!LO:TX:t=P:problem=większość kaud zapisanych z prawej strony główki
!LO:N:vis=2	!	!	!	!LO:N:vis=2	!	!LO:N:vis=2	!	!LO:N:vis=2	!	!LO:N:vis=2	!	!	!
!LO:TX:t=P:problem=w takcie jest za mało wartości rytmicznych w stosunku do metrum	!	!	!	!	!	!	!	!	!	!LO:TX:t=P:problem=w takcie jest za mało wartości rytmicznych w stosunku do metrum	!	!	!
!	!	!	!	!	!	!LO:TX:t=P:problem=w takcie jest za mało wartości rytmicznych w stosunku do metrum	!	!LO:TX:t=P:problem=w takcie jest za mało wartości rytmicznych w stosunku do metrum	!	!	!	!	!
2.r	.	8G/L	8G/L	2.r	.	2.r	.	2.r	.	2.r	.	8B/L	8g/L
.	.	8B/	8B/	.	.	.	.	.	.	.	.	8B/	8g/
.	.	8d/J	8d/J	.	.	.	.	.	.	.	.	8B/J	8g/J
.	.	8g/L	8g/L	.	.	.	.	.	.	.	.	8B/L	8g/L
.	.	16g/L	16g/L	.	.	.	.	.	.	.	.	8B/	8g/
.	.	16f#X/J	16f#X/J	.	.	.	.	.	.	.	.	.	.
.	.	8g/J	8g/J	.	.	.	.	.	.	.	.	8B/J	8g/J
!	!	!	!LO:LB:g=original	!	!	!	!	!	!	!	!	!	!
!	!	!	!	!	!	!	!	!	!	!	!	!	!LO:LB:g=original
=19	=19	=19	=19	=19	=19	=19	=19	=19	=19	=19	=19	=19	=19
*	*	*	*	*	*ij	*	*ij	*	*ij	*	*ij	*	*
!	!	!LO:TX:t=P:problem=w takcie jest za mało wartości rytmicznych w stosunku do metrum	!LO:TX:t=P:problem=w takcie jest za mało wartości rytmicznych w stosunku do metrum	!	!	!	!	!	!	!	!	!LO:TX:t=P:problem=w takcie jest za mało wartości rytmicznych w stosunku do metrum	!LO:TX:t=P:problem=w takcie jest za mało wartości rytmicznych w stosunku do metrum
!	!	!LO:N:vis=2	!LO:N:vis=2	!	!	!	!	!	!	!	!	!LO:N:vis=2	!LO:N:vis=2
8C\L	.	2.r	2.r	8C\	a	8c\	a	8g\	a	8ee\	a	2.r	2.r
8E\	.	.	.	8E\	so-	8c\	so-	8g\	so-	8cc\	so-	.	.
8G\J	.	.	.	8G\	-lis	8B\	-lis	8g\	-lis	8dd\	-lis	.	.
8c\L	.	.	.	8c\L	o-	8c\L	o-	4g\	o-	8eeL\	o-	.	.
8B\	.	.	.	8B\J	.	8B\J	.	.	.	8ddJ\	.	.	.
8c\J	.	.	.	8c\	-rtu	8c\	-rtu	8g\	-rtu	8ee\	-rtu	.	.
*	*	*	*	*	*Xij	*	*Xij	*	*Xij	*	*Xij	*	*
!LO:N:vis=2	!	!	!	!LO:N:vis=2	!	!LO:N:vis=2	!	!LO:N:vis=2	!	!LO:N:vis=2	!	!	!
!LO:TX:t=P:problem=w takcie jest za mało wartości rytmicznych w stosunku do metrum	!	!	!	!LO:TX:t=P:problem=w takcie jest za mało wartości rytmicznych w stosunku do metrum	!	!LO:TX:t=P:problem=w takcie jest za mało wartości rytmicznych w stosunku do metrum	!	!LO:TX:t=P:problem=w takcie jest za mało wartości rytmicznych w stosunku do metrum	!	!LO:TX:t=P:problem=w takcie jest za mało wartości rytmicznych w stosunku do metrum	!	!	!
2.r	.	8c/L	8c/L	2.r	.	2.r	.	2.r	.	2.r	.	8c/L	8c/L
.	.	8e/	8e/	.	.	.	.	.	.	.	.	8e/	8e/
.	.	8g/J	8g/J	.	.	.	.	.	.	.	.	8g/J	8g/J
!	!	!LO:LB:g=original	!	!	!	!	!	!	!	!	!	!	!
.	.	8cc\L	8cc\L	.	.	.	.	.	.	.	.	8cc\L	8cc\L
.	.	16cc\L	16cc\L	.	.	.	.	.	.	.	.	8g\	8g\
.	.	16b\J	16b\J	.	.	.	.	.	.	.	.	.	.
.	.	8cc\J	8cc\J	.	.	.	.	.	.	.	.	8cc\J	8cc\J
=20	=20	=20	=20	=20	=20	=20	=20	=20	=20	=20	=20	=20	=20
8c\L	.	4g/	8ee\L	8c\L	us-	8c\L	us-	4g\	us-	8ee\L	us-	4g/	8ee\L
8B\	.	.	8dd\	8B\J	.	(>8B\J	.	.	.	8dd\J	.	.	8dd\
8A\J	.	8g/	8cc\J	8A\	-que	8c\)	-que	8g\	-que	8cc\	-que	8r	8cc\J
8G\L	.	4g/	8b\L	8G\L	ad	(>8d\L	ad	4g\	ad	8b\L	ad	4g/	8dd\L
8A\	.	.	8cc\	8A\J	.	8c\J)	oc-	.	.	8cc\J	.	.	8cc\
8B\J	.	8g/	8dd\J	8B\	oc-	8B\	-ca-	8g\	oc-	8dd\	oc-	8r	8dd\J
!LO:LB:g=original	!	!	!	!	!	!	!	!	!	!	!	!	!
8c\L	.	4g/	8ee\L	8c\L	-ca-	8c\L	-sum	4g\	-ca-	8ee\L	-ca-	4g/	8ee\L
8B\	.	.	8dd\	8B\	.	8B\	.	.	.	8dd\	.	.	8dd\
8A\J	.	8f#X/	8cc\J	8A\J	.	8c\J	.	8f#X\	-sum	8cc\J	.	8r	8cc\J
!	!	!	!	!	!	!	!	!LO:SIC:t=w źródle brak tekstu pod nutą	!	!	!	!	!
4G\	#6|	4g/	4b\	4G\	-sum	4d\	lau-	4g\	.	4b\	-sum	4g/	4dd\
8E\	.	8g/	8cc\	8E\	lau-	8e\	.	8g\	lau-	8cc\	lau-	8cc\	8ee\
!	!	!	!	!	!	!	!	!LO:LB:g=original	!	!	!	!	!
=21	=21	=21	=21	=21	=21	=21	=21	=21	=21	=21	=21	=21	=21
8E\L	6	4g/	8cc\L	8.E\	-da-	8.e\	-da-	8.g\	-da-	8.cc\	-da-	4cc\	4cc\
8E\	-5	.	8b\	.	.	.	.	.	.	.	.	.	.
.	.	.	.	16E\	-bi-	16e\	-bi-	16g\	-bi-	16b-X\	-bi-	.	.
8E\J	.	8g/	8cc\J	8E\	-le	8e\	-le	8g\	-le	8cc\	-le	8cc\	8cc\
!LO:TX:a:t=P:problem=mixed beam	!	!	!	!	!	!	!	!	!	!	!	!	!
8F\L	.	4a/	8a\L	8F\	no-	8c\	no-	8a\	no-	8a/	no-	4cc\	4cc\
8FF/	.	.	8f\	8FF/	-men	8c\	-men	8a\	-men	8f/	-men	.	.
*	*	*	*	*	*ij	*	*ij	*	*	*	*ij	*	*
!	!	!	!	!	!	!LO:LB:g=original	!	!	!	!	!	!	!
8F\J	.	8a/	8dd\J	8F\	lau-	8f\	lau-	8.a\	Do-	8dd\	lau-	8dd\	8dd\
!	!	!	!	!	!	!	!	!	!	!LO:LB:g=original	!	!	!
8F#X\L	6	4a/	8.dd\L	8.F#X\	-da-	8.d\	-da-	.	.	8.dd\	-da-	4dd\	4dd\
.	.	.	.	.	.	.	.	16a\	-mi-	.	.	.	.
8F#\	5	.	.	.	.	.	.	8a\	-ni	.	.	.	.
.	.	.	16cc\K	16F#\	-bi-	16d\	-bi-	.	.	16cc\	-bi-	.	.
!	!	!	!	!LO:LB:g=original	!	!	!	!	!	!	!	!	!
8F#\J	.	8a/	8dd\J	8F#\	-le	8e\	-le	8g\	no-	8dd\	-le	4g/	8dd\
!LO:TX:a:t=P:problem=mixed beam	!	!	!	!	!	!	!	!	!	!	!	!	!
8G\L	.	8d/L	8b\L	8G\	no-	8d\	no-	8g\	-men	8bn\	no-	.	4dd\
!	!	!	!	!	!	!	!	!LO:N:vis=8	!	!	!	!LO:N:vis=8	!
!	!	!	!	!	!	!	!	!LO:TX:t=P:problem=w takcie jest za mało wartości rytmicznych w stosunku do metrum	!	!	!	!LO:TX:t=P:problem=w takcie jest za mało wartości rytmicznych w stosunku do metrum	!
8GG/J	.	8d/J	8g\J	8GG/	-men	8d\	-men	4r	.	8g\	-men	4r	.
*	*	*	*	*	*Xij	*	*Xij	*	*	*	*Xij	*	*
8r	.	8r	8r	8r	.	8r	.	.	.	8r	.	.	8r
=22	=22	=22	=22	=22	=22	=22	=22	=22	=22	=22	=22	=22	=22
*	*	*	*	*	*	*	*	*	*ij	*	*	*	*
4E\	.	4g/	4cc\	4E\	no-	4e\	no-	4g\	no-	4cc\	no-	4cc\	4ee\
.	.	.	.	.	.	.	.	.	.	.	.	.	.
8F\	.	8a/	8dd\	8Fn\	-men	8d\	-men	8a\	-men	8cc\	-men	8cc\	8aa\
*	*	*	*	*	*	*	*	*	*Xij	*	*	*	*
4G\	.	4d/	4g\	4.G\	Do-	4d\	Do-	4g\	Do-	4cc\	Do-	4g/	4dd\
.	.	.	.	.	.	.	.	.	.	.	.	.	.
8GG/	.	16g/LL	8b\	.	.	8d\	-mi-	8g\	-mi-	8b\	-mi-	8r	8dd\
.	.	16f/JJ	.	.	.	.	.	.	.	.	.	.	.
4.C/	.	4e/	4cc\	8GG/	-mi-	4e\	-ni	4g\	-ni	4cc\	-ni	8g/	4cc\
.	.	.	.	4C	-ni	.	.	.	.	.	.	4e/	.
.	.	8r	8r	.	.	8r	.	8r	.	8r	.	.	8r
4r	.	8e/L	8g#X/L	8r	.	8B\	Ex-	4r	.	4r	.	4r	4r
!	!	!	!	!LO:TX:t=P:problem=w takcie jest za dużo wartości rytmicznych w stosunku do metrum	!	!	!	!	!	!	!	!	!
!	!	!	!	!LO:N:vis=4	!	!	!	!	!	!	!	!	!
.	.	8e/	8g#/	8r	.	8B\	-cel-	.	.	.	.	.	.
!	!	!	!	!LO:N:vis=2	!	!	!	!	!	!	!	!	!
8r	.	8e/J	8g#/J	8r	.	8B\	-sus	8r	.	8r	.	8r	8r
=23	=23	=23	=23	=23	=23	=23	=23	=23	=23	=23	=23	=23	=23
1.r	.	8e/L	8g/L	1.r	.	4B\	su-	0.r	.	0.r	.	0.r	0.r
.	.	8e/	8g/	.	.	.	.	.	.	.	.	.	.
.	.	8e/J	8g/J	.	.	8e\	-per	.	.	.	.	.	.
.	.	8e/L	8g/L	.	.	4B\	om-	.	.	.	.	.	.
.	.	8e/	8g/	.	.	.	.	.	.	.	.	.	.
.	.	8e/J	8g/J	.	.	8B\	-nes	.	.	.	.	.	.
!	!	!	!LO:LB:g=original	!	!	!	!	!	!	!	!	!	!
.	.	4e/	8a/L	.	.	8c\L	gen-	.	.	.	.	.	.
.	.	.	8gn/	.	.	8B\J	.	.	.	.	.	.	.
.	.	8d/	8f/J	.	.	8A\	-tes	.	.	.	.	.	.
.	.	4e/	4e/	.	.	8.G#X/	Do-	.	.	.	.	.	.
.	.	.	.	.	.	16F#X/	-mi-	.	.	.	.	.	.
!	!	!	!	!	!	!LO:N:vis=4	!	!	!	!	!	!	!
!	!	!	!	!	!	!LO:TX:t=P:problem=w takcie jest za dużo wartości rytmicznych w stosunku do metrum	!	!	!	!	!	!	!
.	.	8r	8r	.	.	8E/	-nus	.	.	.	.	.	.
=24	=24	=24	=24	=24	=24	=24	=24	=24	=24	=24	=24	=24	=24
8AA/L	.	8cc\L	16ee\LL	8c\	Et	8e\	et	.	.	.	.	.	.
.	.	.	16cc\	.	.	.	.	.	.	.	.	.	.
8AA/	.	8cc\	16g\	8c\	su-	8e\	su-	.	.	.	.	.	.
.	.	.	16e\JJ	.	.	.	.	.	.	.	.	.	.
8AA/J	.	8cc\J	8ee\	8c\	-per	8e\	-per	.	.	.	.	.	.
4AA/	.	8cc\L	8ee\L	8c\L	coe-	8e\L	coe-	.	.	.	.	.	.
.	.	16b\L	16dd\L	16B\L	.	16d\L	.	.	.	.	.	.	.
!	!	!	!	!LO:TX:t=P:problem=w takcie jest za mało wartości rytmicznych w stosunku do metrum	!	!	!	!	!	!	!	!	!
.	.	16a\J	16cc\J	16A\JJ	-los	16c\JJ	.	.	.	.	.	.	.
*	*	*	*	*	*ij	*	*	*	*	*	*	*	*
8r	.	8b\J	8dd\J	8B\	Et	8d\	-los	.	.	.	.	.	.
*	*	*	*	*	*	*	*ij	*	*	*	*	*	*
!	!	!LO:LB:g=original	!	!	!	!	!	!	!	!	!	!	!
8G#X\L	.	8b\L	16dd/LL	8B\	su-	8d\	et	.	.	.	.	.	.
.	.	.	16b/	.	.	.	.	.	.	.	.	.	.
!	!	!	!	!	!	!LO:LB:g=original	!	!	!	!	!	!	!
8G#\	.	8b\	16g#X/	8B\	-per	8d\	su-	.	.	.	.	.	.
.	.	.	16e/JJ	.	.	.	.	.	.	.	.	.	.
8G#\J	.	8b\J	4dd\	8B\L	coe-	8d\	-per	.	.	.	.	.	.
4G#\	.	8b\L	.	16A\L	.	8d\L	coe-	.	.	.	.	.	.
.	.	.	.	16G#X\JJ	.	.	.	.	.	.	.	.	.
!	!	!	!	!LO:N:vis=8	!	!	!	!	!	!	!	!	!
.	.	16a\L	16cc\LL	4A\	-los	16c\L	.	.	.	.	.	.	.
.	.	16g#X\J	16b\J	.	.	16B\JJ	.	.	.	.	.	.	.
8r	.	8a\J	8cc\J	.	.	8c\	-los	.	.	.	.	.	.
*	*	*	*	*	*Xij	*	*Xij	*	*	*	*	*	*
=25	=25	=25	=25	=25	=25	=25	=25	=25	=25	=25	=25	=25	=25
*	*	*	*	*	*ij	*	*ij	*	*	*	*	*	*
!	!	!	!	!	!	!	!	!LO:N:vis=1	!	!LO:N:vis=1	!	!	!
8A\L	.	8a\L	16cc/LL	8A\	Et	8c\	et	1.r	.	1.r	.	1.r	1.r
.	.	.	16a/	.	.	.	.	.	.	.	.	.	.
8A\	.	8a\	16e/	8A\	su-	8c\	su-	.	.	.	.	.	.
.	.	.	16c/JJ	.	.	.	.	.	.	.	.	.	.
8A\J	.	8a\J	4cc\	8A\	-per	8c\	-per	.	.	.	.	.	.
4A\	.	8a\L	.	8A\L	coe-	8c\L	coe-	.	.	.	.	.	.
.	.	16a\L	16b\LL	16G#X\	.	16B\	.	.	.	.	.	.	.
.	.	16g#X\J	16a\J	16F\J	.	16A\J	.	.	.	.	.	.	.
8r	.	8a\J	8b\J	8G#X\	-los	8B\	-los	.	.	.	.	.	.
*	*	*	*	*	*Xij	*	*Xij	*	*	*	*	*	*
!	!	!LO:TX:t=P:problem=w takcie jest za mało wartości rytmicznych w stosunku do metrum	!LO:TX:t=P:problem=w takcie jest za mało wartości rytmicznych w stosunku do metrum	!	!	!	!	!	!	!	!	!	!
!	!	!LO:N:vis=2	!LO:N:vis=2	!	!	!	!	!	!	!	!	!	!
8A\L	.	2.r	2.r	8A\	glo-	8c\	glo-	.	.	.	.	.	.
!	!	!	!	!LO:LB:g=original	!	!	!	!	!	!	!	!	!
8E\	.	.	.	8E\	-ri-	8B\	-ri-	.	.	.	.	.	.
8F\J	.	.	.	8F\	-a	8A\	-a	.	.	.	.	.	.
4E\	.	.	.	4G#\	ej-	4G#X/	ej-	.	.	.	.	.	.
!	!	!	!	!LO:SIC:t=8GG#	!	!	!	!	!	!	!	!	!
8AA/	.	.	.	8GG/	-us	8A\	-us	.	.	.	.	.	.
!LO:LB:g=original	!	!	!	!	!	!	!	!	!	!	!	!	!
=26	=26	=26	=26	=26	=26	=26	=26	=26	=26	=26	=26	=26	=26
1.r	.	4a\	4a\	4A\	Quis	4e\	Quis	4a\	quis	4cc\	Quis	4e/	4e/
.	.	8r	8r	8r	.	8r	.	8r	.	8r	.	8r	8r
*	*	*	*	*	*ij	*	*ij	*	*ij	*	*ij	*	*
.	.	4e/	4e/	4E\	Quis	4e\	Quis	4g#X\	quis	4b\	Quis	4e/	4e/
*	*	*	*	*	*Xij	*	*Xij	*	*Xij	*	*Xij	*	*
.	.	8r	8r	8r	.	8r	.	8r	.	8r	.	8r	8r
*	*	*	*	*	*ij	*	*ij	*	*ij	*	*ij	*	*
.	.	4A/	4A/	4A\	Quis	4e\	Quis	4a\	quis	4cc\	Quis	4e/	4e/
*	*	*	*	*	*Xij	*	*Xij	*	*Xij	*	*Xij	*	*
.	.	8r	8r	8r	.	8r	.	8r	.	8r	.	8r	8r
*	*	*	*	*	*ij	*	*ij	*	*ij	*	*ij	*	*
.	.	4e/	4e/	4E\	Quis	4e\	Quis	4g#X\	quis	4b\	Quis	4e/	4e/
*	*	*	*	*	*Xij	*	*Xij	*	*Xij	*	*Xij	*	*
.	.	8r	8r	8r	.	8r	.	8r	.	8r	.	8r	8r
!	!	!	!	!	!	!	!	!	!	!	!	!LO:LB:g=original	!LO:LB:g=original
=27	=27	=27	=27	=27	=27	=27	=27	=27	=27	=27	=27	=27	=27
8A\L	.	4e/	8cc\L	8A\	quis	8A\	quis	8e\	quis	8cc\	quis	8e/L	8e/L
8G#X\	.	.	8b\	8G#X\	si-	8G#X\	Si-	8e\	si-	8b\	si-	8e/	8e/
8A\J	.	8r	8cc\J	8A\	-cut	8A\	-cut	8e\	-cut	8cc\	-cut	8e/J	8e/J
8G#X\L	.	4e/	8b\L	8G#X\	Do-	8G#X/	Do-	8.e\	Do-	8b\	Do-	8e/L	8e/L
8F#X\	.	.	8a\	8F#X\	mi-	8F#X/	mi-	.	.	8a\	-mi-	8e/	8e/
.	.	.	.	.	.	.	.	16e\	-mi-	.	.	.	.
!	!	!	!	!	!	!	!	!LO:PB:g=original	!	!	!	!	!
8G#\J	.	8r	8b\J	8G#X\	-nus	8G#/	-nus	8e\	-nus	8b\	-nus	8e/J	8e/J
8E\L	.	4e/	8g#X\L	8E\L	De-	8B\L	De-	4e\	De-	8g#X\L	De-	8e/L	8e/L
8F#X\	.	.	8a\	8F#X\	.	8A\J	.	.	.	8a\J	.	8e/	8e/
8G#X\J	.	8r	8b\J	8G#\J	-us	8G#\	-us	8e\	-us	8b\	-us	8e/J	8e/J
!LO:TX:a:t=P:problem=mixed beam	!	!	!LO:LB:g=original	!	!	!	!	!	!	!	!	!	!
8A\L	.	4e/	8cc\L	8A\	nos-	8A\	nos-	8e\	nos-	8cc\	nos-	8e/L	8e/L
8AA/J	.	.	8a\J	8AA/	-ter	8A\	-ter	8e\	-ter	8a\	-ter	8e/J	8e/
8r	.	8r	8r	8r	.	8r	.	8r	.	8r	.	8r	8e/J
!	!	!	!	!	!	!LO:LB:g=original	!	!	!	!	!	!	!
=28	=28	=28	=28	=28	=28	=28	=28	=28	=28	=28	=28	=28	=28
1.r	.	4cc\	4cc\	4c\	Quis	4c\	Quis	4gn\	Quis	4ee\	Quis	4c/	4cc\
.	.	8r	8r	8r	.	8r	.	8r	.	8r	.	8r	8r
*	*	*	*	*	*ij	*	*ij	*	*ij	*	*ij	*	*
.	.	4g/	4gn/	4G\	Quis	4B\	Quis	4g\	Quis	4dd\	Quis	4g/	4g/
*	*	*	*	*	*Xij	*	*Xij	*	*Xij	*	*Xij	*	*
.	.	8r	8r	8r	.	8rc	.	8re	.	8r	.	8r	8r
!	!	!	!	!	!	!	!	!	!	!LO:LB:g=original	!	!	!
*	*	*	*	*	*ij	*	*ij	*	*ij	*	*ij	*	*
.	.	4c/	4c/	4C/	Quis	4c\	Quis	4g\	Quis	4ee\	Quis	4c/	4c/
*	*	*	*	*	*Xij	*	*Xij	*	*Xij	*	*Xij	*	*
.	.	8r	8r	8r	.	8r	.	8r	.	8r	.	8r	8r
*	*	*	*	*	*	*	*ij	*	*ij	*	*ij	*	*
!	!	!	!	!	!ij	!LO:N:vis=8	!	!	!	!	!	!	!
!	!	!	!	!	!	!LO:TX:t=P:problem=w takcie jest za mało wartości rytmicznych w stosunku do metrum	!	!	!	!	!	!	!
.	.	4g/	4g/	4G\	Quis	4B\	Quis	4g\	Quis	4dd\	Quis	4G/	4g/
*	*	*	*	*	*Xij	*	*Xij	*	*Xij	*	*Xij	*	*
.	.	.	.	.	.	.	.	.	.	.	.	.	.
.	.	8r	8r	8r	.	8r	.	8r	.	8r	.	8r	8r
!	!	!	!	!	!	!	!	!	!	!	!	!	!LO:LB:g=original
=29	=29	=29	=29	=29	=29	=29	=29	=29	=29	=29	=29	=29	=29
*	*	*	*	*	*ij	*	*	*	*ij	*	*ij	*	*
8c\L	.	4g/	8ee\L	8c\	quis	8c\	quis	8g\	quis	8ee\	quis	8g/L	8g/L
8B\	.	.	8dd\	8B\	si-	8B\	si-	8g\	si-	8dd\	si-	8g/	8g/
8c\J	.	8r	8ee\J	8c\	-cut	8c\	-cut	8g\	-cut	8ee\	-cut	8g/J	8g/J
8B\L	.	4g/	8dd\L	8B\	Do-	8B\	Do-	8.g\	Do-	8dd\	Do-	8g/L	8g/L
8A\	.	.	8cc\	8A\	mi-	8A\	mi-	.	.	8cc\	-mi-	8g/	8g/
.	.	.	.	.	.	.	.	16g\	-mi-	.	.	.	.
!	!	!	!	!LO:LB:g=original	!	!	!	!	!	!	!	!	!
8B\J	.	8r	8dd\J	8B\	-nus	8B\	-nus	8g\	-nus	8dd\	-nus	8g/J	8g/J
8G\L	.	4g/	8b\L	8G\L	De-	8d\L	De-	4g\	De-	8b\L	De-	8g/L	8g/L
8A\	.	.	8cc\	8A\	.	8c\J	.	.	.	8cc\J	.	8g/	8g/
8B\J	.	8r	8dd\J	8B\J	-us	8B\	-us	8g\	-us	8dd\	-us	8g/J	8g/J
!LO:TX:a:t=P:problem=mixed beam	!	!	!	!	!	!	!	!	!	!	!	!	!
8c\L	.	4g/	8ee\L	8c\	nos-	8c\	nos-	8g\	nos-	8ee\	nos-	8g/L	8g/L
8C/J	.	.	8cc\J	8C/	-ter	8c\	-ter	8g\	-ter	8cc\	-ter	8g/J	8g/J
*	*	*	*	*	*Xij	*	*	*	*Xij	*	*Xij	*	*
8r	.	8r	8r	8r	.	8r	.	8r	.	8r	.	8r	8r
=30	=30	=30	=30	=30	=30	=30	=30	=30	=30	=30	=30	=30	=30
4B\	.	4g/	4dd\	4B\	quis	4B\	quis	4g\	qui	4dd\	qui	4dd\	4gg\
8c\	.	8g/	8ee\	8c\	in	8c\	in	8g\	in	8ee\	in	8ee\	8gg\
!	!	!LO:LB:g=original	!	!	!	!	!	!	!	!	!	!	!
4E\	.	4g/	4cc\	4E\	al-	4e\	al-	4g\	al-	4cc\	al-	4ee\	4gg\
8F\	.	8a/	8dd\	8F\	-tis	8d\	-tis	8a\	-tis	8cc\	-tis	16dd\LL	16ff\LL
.	.	.	.	.	.	.	.	.	.	.	.	16cc\JJ	16ee\JJ
!	!	!	!	!LO:TX:t=P:problem=w takcie jest za mało wartości rytmicznych w stosunku do metrum	!	!	!	!	!	!	!	!	!
!	!	!	!	!LO:N:vis=8	!	!	!	!	!	!	!	!	!
4G\	.	4d/	4g/	4G\	ha-	4d\	ha-	4g\	ha-	8cc\	ha-	4g/	4dd\
.	.	.	.	.	.	.	.	.	.	8cc\	-bi-	.	.
!	!	!	!	!	!	!	!	!	!	!LO:TX:t=P:problem=w takcie jest za dużo wartości rytmicznych w stosunku do metrum	!	!	!
!	!	!	!	!	!	!	!	!	!	!LO:N:vis=4	!	!	!
8GG/	.	8g/	8b\	8GG/	bi-	8d\	bi-	8g\	bi-	8cc\	-tat	8g/	8dd\
!	!	!	!	!LO:N:vis=4	!	!	!	!	!	!	!	!	!
4C/	.	4e/	4cc\	4.C/	-tat	4e\	-tat	4.g\	-tat	4r	.	4e/	4cc\
.	.	.	.	.	.	.	.	.	.	.	.	.	.
8r	.	8r	8r	.	.	8r	.	.	.	8r	.	8r	8r
!	!	!	!	!	!	!	!	!LO:LB:g=original	!	!	!	!	!
=31	=31	=31	=31	=31	=31	=31	=31	=31	=31	=31	=31	=31	=31
4C/	6 4 -3	4f#X/	4ee\	4C/	et	4A\	et	4f#X\	et	4ee-X\	et	4c/	4c/
8C/	.	8f#/	8ee\	8C/	hu-	8A\	hu-	8f#\	hu-	8ee-\	hu-	8c/	8c/
4C/	.	4f#/	4ee\	4C/	-mi-	4A\	-mi-	8f#\	-mi-	4ee-\	-mi-	4c/	4g/
.	.	.	.	.	.	.	.	4f#\	li-	.	.	.	.
8C/	.	8f#/	8ee\	8C/	li-	8A\	li-	.	.	8ee-\	-li-	8c/	8G/
4BB/	.	4g/	16dd\LL	4BB/	-a	4B\	-a	4g\	-a	4dd\	-a	4g/	4c/
.	.	.	16b\	.	.	.	.	.	.	.	.	.	.
.	.	.	16g\	.	.	.	.	.	.	.	.	.	.
.	.	.	16b\J	.	.	.	.	.	.	.	.	.	.
*	*	*	*	*	*ij	*	*	*	*ij	*	*	*	*
!	!	!	!	!	!	!	!	!	!	!	!	!	!LO:TX:t=P:problem=w takcie jest za mało wartości rytmicznych w stosunku do metrum
!	!	!	!	!	!	!	!	!	!	!	!	!	!LO:N:vis=8
8BB/	.	8g/	8dd\J	8BB/	hu-	8B\	hu-	8g\	hu-	8dd\	hu-	8G/	2c/
4C/	.	4f#X/	4ee\	4C/	-mi-	4A\	-mi-	4f#X\	-mi-	4ee-\	-mi-	4c/	.
.	.	.	.	.	.	.	.	.	.	.	.	.	.
8C/	.	8f#/	8ee\	8C/	-li-	8A\	-li-	8f#\	-li-	8ee-\	-li-	8c/	.
!LO:LB:g=original	!	!	!	!	!	!LO:LB:g=original	!	!	!	!	!	!	!
=32	=32	=32	=32	=32	=32	=32	=32	=32	=32	=32	=32	=32	=32
4BB/	.	4g/	4dd\	4BB/	-a	4B\	-a	4g\	-a	4dd\	-a	4g/	4g/
*	*	*	*	*	*Xij	*	*	*	*Xij	*	*	*	*
8r	.	8r	8r	8r	.	8r	.	8r	.	8r	.	8r	8r
4G\	.	4b\	4dd\	8G\	re-	4B\	re-	8g\	re-	4dd\	re-	4g/	4dd\
.	.	.	.	4F\	-spi-	.	.	4g\	spi-	.	.	.	.
!	!	!	!LO:LB:g=original	!	!	!	!	!	!	!	!	!	!
8F\	.	8b\	8dd\	.	.	8B\	spi-	.	.	8dd\	-spi-	8r	8dd\
!	!	!	!	!	!	!	!	!	!	!	!	!LO:TX:t=P:problem=w takcie jest za mało wartości rytmicznych w stosunku do metrum	!
!	!	!	!	!	!	!	!	!	!	!	!	!LO:SIC:s=4cc	!
!	!	!	!	!	!	!	!	!	!	!	!	!LO:N:vis=8	!
4En\	.	4cc\	8ee\L	4E\	-cit	4c\	-cit	4g\	-cit	4een\	-cit	4cc\	4ee\
.	.	.	16dd\L	.	.	.	.	.	.	.	.	.	.
.	.	.	16cc\J	.	.	.	.	.	.	.	.	.	.
!	!	!	!	!	!	!	!	!	!	!LO:LB:g=original	!	!	!
8G\	.	8b\	8dd\J	8G\	in	8B\	in	8g\	in	8dd\	in	8g\	8dd\
!	!	!	!	!	!	!	!	!	!	!	!	!LO:LB:g=original	!
4C/	.	4g/	4ee\	4C/	coe-	4c\	coe-	4g\	coe-	4ee\	coe-	4cc\	4ee\
8BB-X/	.	8g/	8ee\	8BB-X/	-lo	8c\	-lo	8g\	-lo	8ee\	-lo	8ee\	8gg\
=33	=33	=33	=33	=33	=33	=33	=33	=33	=33	=33	=33	=33	=33
8A\L	.	8cc\L	4ee\	8A\L	et	8c\L	et	8a\L	et	4ff\	et	8cc\L	4ff\
8B\	.	8b\	.	8Bn\J	.	8B\J	.	8g\J	.	.	.	8dd\	.
8c\J	.	8cc\J	8dd\	8c\	in	8c\	in	8f\	in	8ee\	in	8cc\J	8ee\
!LO:TX:a:t=P:problem=mixed beam	!	!	!	!LO:TX:a:t=P:problem=mixed beam	!	!	!	!	!	!	!	!	!
8F\L	.	4cc\	4dd\	8F\L	ter-	(>4c\	ter-	8a\	ter-	4.dd\	ter-	8c/L	8aa\L
8G\	.	.	.	8G\	.	.	.	4g\	-ra.	.	.	8g/	8.dd\
8GG/J	.	8b\	8dd\	8GG/J	.	8B\)	-ra	.	.	.	.	8g/J	.
.	.	.	.	.	.	.	.	.	.	.	.	.	16dd\Jk
!	!	!	!	!	!	!	!	!LO:SIC:t=w źródle brak tekstu pod nutą	!	!	!	!	!
4C/	.	4cc\	4cc\	4C/	-ra	4c\	.	4g\	.	4cc\	-ra	4e/	4cc\
8r	.	8r	8r	8r	.	8r	.	8r	.	8r	.	8r	8r
!	!	!	!	!LO:LB:g=original	!	!	!	!	!	!	!	!	!
4r	.	4g/	4g/	4G\	su-	4r	.	4r	.	4r	.	4r	4r
8r	.	8f/	8f/	8F\	-sci-	8r	.	8r	.	8r	.	8r	8r
=34	=34	=34	=34	=34	=34	=34	=34	=34	=34	=34	=34	=34	=34
!LO:N:vis=2	!	!	!	!	!	!	!	!	!	!	!	!	!
!LO:TX:t=P:problem=w takcie jest za mało wartości rytmicznych w stosunku do metrum	!	!	!	!	!	!	!	!	!	!	!	!	!
2.r	.	8.e/L	8e/L	8.E\L	-tans	0.r	.	0.r	.	0.r	.	0.r	0.r
.	.	.	8f/	.	.	.	.	.	.	.	.	.	.
.	.	16f/K	.	16F\Jk	.	.	.	.	.	.	.	.	.
.	.	8g/J	8g/J	8G\	a	.	.	.	.	.	.	.	.
.	.	4c/	4c/	4C/	ter-	.	.	.	.	.	.	.	.
.	.	8d/	8d/	8D/	-ra	.	.	.	.	.	.	.	.
4r	.	8.B/L	8.B/L	8.BB/	i-	.	.	.	.	.	.	.	.
.	.	16A/K	16A/K	16AA/	-no-	.	.	.	.	.	.	.	.
8r	.	8G/J	8G/J	8GG/	-pem	.	.	.	.	.	.	.	.
4BB/	6	4r	4r	4G\	et	.	.	.	.	.	.	.	.
.	.	.	.	.	.	.	.	.	.	.	.	.	.
8BB/	5	8r	8r	8F\	de	.	.	.	.	.	.	.	.
=35	=35	=35	=35	=35	=35	=35	=35	=35	=35	=35	=35	=35	=35
4C/	.	0.r	0.r	8E\L	ster-	.	.	.	.	.	.	.	.
.	.	.	.	16G\L	.	.	.	.	.	.	.	.	.
.	.	.	.	16F\	.	.	.	.	.	.	.	.	.
8r	.	.	.	16E\	.	.	.	.	.	.	.	.	.
.	.	.	.	16D\JJ	.	.	.	.	.	.	.	.	.
4C/	.	.	.	8C/L	.	.	.	.	.	.	.	.	.
.	.	.	.	16E/L	.	.	.	.	.	.	.	.	.
.	.	.	.	16D/	.	.	.	.	.	.	.	.	.
8r	.	.	.	16C/	.	.	.	.	.	.	.	.	.
.	.	.	.	16BB/JJ	.	.	.	.	.	.	.	.	.
4C/	.	.	.	8.C/	.	.	.	.	.	.	.	.	.
.	.	.	.	16GG/	-co-	.	.	.	.	.	.	.	.
8r	.	.	.	8GG/	-re	.	.	.	.	.	.	.	.
*	*	*	*	*	*ij	*	*	*	*	*	*	*	*
4E\	6	.	.	4c\	et	.	.	.	.	.	.	.	.
8E\	-5	.	.	8B-X\	de	.	.	.	.	.	.	.	.
=36	=36	=36	=36	=36	=36	=36	=36	=36	=36	=36	=36	=36	=36
!	!	!	!	!	!	!LO:N:vis=1	!	!LO:N:vis=1	!	!LO:N:vis=1	!	!	!
4F\	.	.	.	8A\L	ster-	1.r	.	1.r	.	1.r	.	1.r	1.r
.	.	.	.	16c\L	.	.	.	.	.	.	.	.	.
.	.	.	.	16B-X\	.	.	.	.	.	.	.	.	.
8r	.	.	.	16A\	.	.	.	.	.	.	.	.	.
.	.	.	.	16G\JJ	.	.	.	.	.	.	.	.	.
4F\	.	.	.	8F\L	.	.	.	.	.	.	.	.	.
.	.	.	.	16A\L	.	.	.	.	.	.	.	.	.
.	.	.	.	16G\	.	.	.	.	.	.	.	.	.
8r	.	.	.	16F\	.	.	.	.	.	.	.	.	.
.	.	.	.	16E\JJ	.	.	.	.	.	.	.	.	.
4F\	.	.	.	8.BBn/	.	.	.	.	.	.	.	.	.
.	.	.	.	16AA/	-co-	.	.	.	.	.	.	.	.
!	!	!	!	!LO:TX:t=P:problem=w takcie jest za mało wartości rytmicznych w stosunku do metrum	!	!	!	!	!	!	!	!	!
!	!	!	!	!LO:N:vis=8	!	!	!	!	!	!	!	!	!
8r	.	.	.	2GG/	-re	.	.	.	.	.	.	.	.
*	*	*	*	*	*Xij	*	*	*	*	*	*	*	*
8G\L	.	.	.	.	.	.	.	.	.	.	.	.	.
16G\L	.	.	.	.	.	.	.	.	.	.	.	.	.
16F\	.	.	.	.	.	.	.	.	.	.	.	.	.
16E\	.	.	.	.	.	.	.	.	.	.	.	.	.
16D\JJ	.	.	.	.	.	.	.	.	.	.	.	.	.
!	!	!LO:LB:g=original	!	!	!	!	!	!	!	!	!	!	!
=37	=37	=37	=37	=37	=37	=37	=37	=37	=37	=37	=37	=37	=37
!	!	!LO:N:vis=2	!LO:N:vis=2	!	!	!LO:N:vis=2	!	!LO:N:vis=2	!	!LO:TX:t=P:problem=w takcie jest za mało wartości rytmicznych w stosunku do metrum	!	!LO:TX:t=P:problem=w takcie jest za mało wartości rytmicznych w stosunku do metrum	!LO:TX:t=P:problem=w takcie jest za mało wartości rytmicznych w stosunku do metrum
!	!	!LO:TX:t=P:problem=w takcie jest za mało wartości rytmicznych w stosunku do metrum	!LO:TX:t=P:problem=w takcie jest za mało wartości rytmicznych w stosunku do metrum	!	!	!LO:TX:t=P:problem=w takcie jest za mało wartości rytmicznych w stosunku do metrum	!	!LO:TX:t=P:problem=w takcie jest za mało wartości rytmicznych w stosunku do metrum	!	!LO:N:vis=2	!	!LO:N:vis=2	!LO:N:vis=2
8C\L	.	2.r	2.r	8.C/	e-	2.r	.	2.r	.	2.r	.	2.r	2.r
16C\L	.	.	.	.	.	.	.	.	.	.	.	.	.
16D\J	.	.	.	16C/	-ri-	.	.	.	.	.	.	.	.
!	!	!	!	!LO:LB:g=original	!	!	!	!	!	!	!	!	!
8E\J	.	.	.	8E\	-gens	.	.	.	.	.	.	.	.
!LO:LB:g=original	!	!	!	!LO:TX:a:t=P:problem=mixed beam	!	!	!	!	!	!	!	!	!
!LO:TX:a:t=P:problem=mixed beam	!	!	!	!	!	!	!	!	!	!	!	!	!
8F\L	.	.	.	8F\L	Pau-	.	.	.	.	.	.	.	.
8G\	.	.	.	8G\	.	.	.	.	.	.	.	.	.
8GG/J	.	.	.	8GG/J	-pe-	.	.	.	.	.	.	.	.
4C/	.	8r	8r	4C/	-rem	8r	.	8r	.	8r	.	8r	8r
.	.	8r	8r	.	.	8r	.	8r	.	8r	.	8r	8r
8c\	.	8ee\	8gg\	8c\	Ut	8c\	ut	8g\	ut	8ee\	ut	8cc\	8ee\
8B\L	.	8dd\L	4gg\	8B\	col-	8B\	col-	8g\	col-	8dd\	col-	8g/L	8dd\L
8A\	.	8cc\	.	8A\	-lo-	8A\	-lo-	8g\	-lo-	8cc\	-lo-	8e/	8cc\
8B\J	.	8dd\J	8gg\	8B\	-cet	8B\	-cet	8g\	-cet	8dd\	-cet	8g/J	8dd\J
!	!	!	!	!	!	!	!	!LO:LB:g=original	!	!	!	!	!
=38	=38	=38	=38	=38	=38	=38	=38	=38	=38	=38	=38	=38	=38
4c\	.	4ee\	4gg\	4c\	e-	4c\	e-	4g\	e-	4ee\	e-	4cc\	4ee\
8B\	.	8dd\	8gg\	8B\	-um	8B\	-um	8g\	-um	8dd\	-um	8g/	8dd\
4A\	#6|	4cc\	4ff#X\	4A\	cum	4c\	cum	8.f#X\	cum	4cc\	cum	4c/	4cc\
.	.	.	.	.	.	.	.	16g\	Prin-	.	.	.	.
8G\	.	8b\	8gg\	8G\	Prin-	8d\	Prin-	8.f#X\	-ci-	8b\	prin-	8dd\	8gg\
!	!	!	!	!LO:N:vis=4.	!	!	!	!	!	!	!	!	!
!	!	!	!	!	!	!	!	!	!	!	!	!LO:TX:t=P:problem=niewyraźny zapis	!
4d\	.	4a\	16ff#X\LL	8.d\	-ci-	8.d\	-ci-	.	.	8.a\	-ci-	4r	4ff#X\
.	.	.	16dd\	.	.	.	.	16f#\	-pi-	.	.	.	.
.	.	.	16ff#\	.	.	.	.	8f#\	bus	.	.	.	.
.	.	.	16aa\	16D/	-pi-	16d\	-pi-	.	.	16a\	-pi-	.	.
8D\	.	8a\	16ff#\	8D/	bus	8d\	bus	8.g\	Po-	8a\	-bus	8r	8r
.	.	.	16dd\JJ	.	.	.	.	.	.	.	.	.	.
8.B\L	.	8.b\L	16gg\LL	8.B\	Po-	8.d\	Po-	.	.	8.b\	Po-	4dd\	4gg\
.	.	.	16dd\	.	.	.	.	16a\	-pu-	.	.	.	.
!	!	!	!	!	!	!	!	!LO:N:vis=8	!	!	!	!	!
!	!	!	!	!	!	!	!	!LO:TX:t=P:problem=w takcie jest za mało wartości rytmicznych w stosunku do metrum	!	!	!	!	!
.	.	.	16gg\	.	.	.	.	4b\	li	.	.	.	.
16A\K	.	16cc\K	16bb\	16A\	-pu-	16c\	-pu-	.	.	16cc\	-pu-	.	.
!	!	!	!	!	!	!LO:LB:g=original	!	!	!	!	!	!	!
8G\J	.	8dd\J	16gg\	8G\	li	8B\	li	.	.	8dd\	-li	8r	8r
.	.	.	16dd\JJ	.	.	.	.	.	.	.	.	.	.
!	!	!	!LO:LB:g=original	!	!	!	!	!	!	!	!	!	!
!	!	!	!	!	!	!	!	!	!	!	!	!	!LO:LB:g=original
=39	=39	=39	=39	=39	=39	=39	=39	=39	=39	=39	=39	=39	=39
4d\	.	4a\	16ff#X\LL	4d\	su-	4d\	su-	4f#X\	su-	4a\	su-	4dd\	4ffn\
.	.	.	16dd\	.	.	.	.	.	.	.	.	.	.
.	.	.	16ff#\	.	.	.	.	.	.	.	.	.	.
.	.	.	16aa\	.	.	.	.	.	.	.	.	.	.
8D\	.	8a\	16ff#\	8D/	-i	8d\	-i	8f#\	-i	8a\	-i	8r	8r
.	.	.	16dd\JJ	.	.	.	.	.	.	.	.	.	.
*	*	*	*	*	*ij	*	*	*	*ij	*	*ij	*	*
!	!	!	!LO:TX:a:t=P:problem=mixed beam	!	!	!	!	!	!	!	!	!	!
8.D\L	.	4a\	8.d/L	8.D\	Po-	8.d\	Po-	8.f#\	Po-	8.a\	Po-	4dd\	4dd\
16E\K	.	.	16ff#X\L	16E\	-pu-	16d\	-pu-	16e\	-pu-	16g\	-pu-	.	.
!	!	!	!	!	!	!	!	!	!	!LO:N:vis=16	!	!	!
!	!	!	!	!	!	!	!	!	!	!LO:TX:t=P:problem=w takcie jest za mało wartości rytmicznych w stosunku do metrum	!	!	!
8F#X\J	.	8dd\	16gg\	8F#X\	-li	8d\	-li	8d\	-li	8a\	-li	8r	8r
.	.	.	16aa\JJ	.	.	.	.	.	.	.	.	.	.
4G\	.	4dd\	16bb\LL	4G\	su-	4d\	su-	4d\	su-	4b\	su-	4g/	4dd\
.	.	.	16gg\	.	.	.	.	.	.	.	.	.	.
.	.	.	16dd\	.	.	.	.	.	.	.	.	.	.
.	.	.	16b\J	.	.	.	.	.	.	.	.	.	.
8GG/	.	8dd\	8g\J	8GG/	-i	8d\	-i	8d\	-i	8b\	-i	8g/	8dd\
*	*	*	*	*	*Xij	*	*	*	*Xij	*	*Xij	*	*
!	!	!	!	!	!	!	!	!	!	!LO:LB:g=original	!	!	!
.	.	.	.	.	.	.	.	.	.	.	.	.	.
4G\	-3	4dd\	4bb\	4G\	qui	4d\	.	4g\	qui	4cc-X\	qui	4g/	4dd\
.	.	.	.	.	.	.	.	.	.	.	.	.	.
8r	.	8r	8r	8r	.	8r	.	8r	.	8r	.	8r	8r
=40	=40	=40	=40	=40	=40	=40	=40	=40	=40	=40	=40	=40	=40
!	!	!	!LO:TX:t=P:problem=w takcie jest za dużo wartości rytmicznych w stosunku do metrum	!	!	!	!	!	!	!	!	!	!
!	!	!	!LO:N:vis=16	!	!	!	!	!	!	!	!	!	!
8E\L	6 -5	8gg\L	32bb\LLL	4E\	ha-	8c\	Qui	8b-X\	qui	8gg\	qui	4cc\	4ee\
!	!	!	!LO:N:vis=16	!	!	!	!	!	!	!	!	!	!
.	.	.	32gg\	.	.	.	.	.	.	.	.	.	.
!	!	!	!LO:N:vis=16	!	!	!	!	!	!	!	!	!	!
.	.	.	32ee\	.	.	.	.	.	.	.	.	.	.
!	!	!	!LO:N:vis=16	!	!	!	!	!	!	!	!	!	!
.	.	.	32cc\JJJ	.	.	.	.	.	.	.	.	.	.
8E\	.	8gg\	4.bb\	.	.	8c\	ha-	8b-\	ha-	8gg\	ha-	.	.
8E\J	.	8gg\J	.	8E\	-bi-	8c\	-bi-	8b-\	-bi-	8gg\	-bi-	8cc\	8ee\
4E\	.	8gg\L	.	4E\	-ta-	4c\	-ta-	8b-\L	ta-	8gg\L	ta-	4cc\	4ee\
.	.	16ff\L	16aa\LL	.	.	.	.	16a\L	.	16ff\L	.	.	.
.	.	16ee\J	16gg\J	.	.	.	.	16g\JJ	.	16ee\JJ	.	.	.
8r	.	8ff\J	8aa\J	8C\	-re	8c\	-re	8a\	-re	8ff\	-re	8r	8r
*	*	*	*	*	*	*	*	*	*ij	*	*ij	*	*
!	!	!	!LO:N:vis=16	!	!	!	!	!	!	!	!	!	!
4F\	.	8ff\L	32aa\LLL	4F\	fa-	4c\	fa-	4a\	qui	8ff\	qui	4cc\	4cc\
!	!	!	!LO:N:vis=16	!	!	!	!	!	!	!	!	!	!
.	.	.	32ff\	.	.	.	.	.	.	.	.	.	.
!	!	!	!LO:N:vis=16	!	!	!	!	!	!	!	!	!	!
.	.	.	32cc\	.	.	.	.	.	.	.	.	.	.
!	!	!	!LO:N:vis=16	!	!	!	!	!	!	!	!	!	!
.	.	.	32a\JJJ	.	.	.	.	.	.	.	.	.	.
.	.	8ff\	4.aa\	.	.	.	.	.	.	8ff\	ha-	.	.
8r	.	8ff\J	.	8F\	-cit	8c\	-cit	8a\	-ha-	8ff\	-bi-	8r	8cc\
!	!	!	!	!LO:TX:t=P:problem=w takcie jest za mało wartości rytmicznych w stosunku do metrum	!	!	!	!	!	!	!	!	!
!	!	!	!	!LO:N:vis=8	!	!	!	!	!	!	!	!	!
4FF/	.	8ff\L	.	4.r	.	4r	.	8a\	-bi-	8ff\	ta-	8cc\	4r
!	!	!	!	!	!	!	!	!LO:LB:g=original	!	!	!	!LO:TX:t=P:problem=w takcie jest za dużo wartości rytmicznych w stosunku do metrum	!
!	!	!	!	!	!	!	!	!	!	!	!	!LO:TX:t=P:problem=niewyraźny zapis	!
!	!	!	!	!	!	!	!	!	!	!	!	!LO:N:vis=4	!
.	.	16ee\L	16gg\LL	.	.	.	.	16g\LL	-ta-	16ee\LL	.	8r	.
.	.	16dd\J	16ff\J	.	.	.	.	16f\JJ	.	16dd\JJ	.	.	.
8r	.	8ee\J	8gg\J	.	.	8r	.	8g\	-re	8ee\	-re	8r	8r
*	*	*	*	*	*	*	*	*	*Xij	*	*Xij	*	*
!	!	!	!	!LO:PB:g=original	!	!	!	!	!	!	!	!	!
=41	=41	=41	=41	=41	=41	=41	=41	=41	=41	=41	=41	=41	=41
!	!	!	!LO:TX:t=P:problem=w takcie jest za dużo wartości rytmicznych w stosunku do metrum	!	!	!	!	!	!	!	!	!	!
!	!	!	!LO:N:vis=16	!	!	!	!	!	!	!	!	!	!
4c\	.	8ee\L	32gg\LLL	4C/	fa-	4c\	fa-	4g\	fa-	4ee\	fa-	4cc\	4ee\
!	!	!	!LO:N:vis=16	!	!	!	!	!	!	!	!	!	!
.	.	.	32ee\	.	.	.	.	.	.	.	.	.	.
!	!	!	!LO:N:vis=16	!	!	!	!	!	!	!	!	!	!
.	.	.	32cc\	.	.	.	.	.	.	.	.	.	.
!	!	!	!LO:N:vis=16	!	!	!	!	!	!	!	!	!	!
.	.	.	32g\JJJ	.	.	.	.	.	.	.	.	.	.
.	.	8ee\	4.gg\	.	.	.	.	.	.	.	.	.	.
8C/	.	8ee\J	.	8C/	-cit	8c\	-cit	8g\	-cit	8ee\	-cit	8cc\	8ee\
4r	.	8ee\L	.	4r	.	4r	.	8g\	ste-	8ee\	ste-	4r	4r
.	.	16dd\L	16ff\L	.	.	.	.	16f\LL	-ri-	16dd\L	-ri-	.	.
.	.	16cc\J	16ee\	.	.	.	.	16e\JJ	.	16cc\J	.	.	.
!	!	!	!LO:SIC:s=8ff	!	!	!	!	!	!	!	!	!	!
8r	.	8dd\J	16ff\J	8r	.	8r	.	8f\	-lem	8dd\	-lem	8r	8r
!	!	!	!LO:N:vis=16	!	!	!	!	!	!	!	!	!	!
.	.	.	32ff\L	.	.	.	.	.	.	.	.	.	.
!	!	!	!LO:N:vis=16	!	!	!	!	!	!	!	!	!	!
.	.	.	32dd\	.	.	.	.	.	.	.	.	.	.
*	*	*	*	*	*ij	*	*ij	*	*ij	*	*ij	*	*
!	!	!	!LO:N:vis=16	!	!	!	!	!	!	!	!	!	!
!	!	!	!	!	!	!	!	!	!	!	!	!LO:LB:g=original	!
4B\	.	8dd\L	32b\	4B\	fa-	8G/	fa-	4f\	fa-	4dd\	fa-	4g/	4dd\
!	!	!	!LO:N:vis=16	!	!	!	!	!	!	!	!	!	!
.	.	.	32g\J	.	.	.	.	.	.	.	.	.	.
.	.	.	4.ff\	.	.	.	.	.	.	.	.	.	.
.	.	8dd\	.	.	.	4G/	-cit	.	.	.	.	.	.
*	*	*	*	*	*	*	*Xij	*	*	*	*	*	*
8BB/	.	8dd\J	.	8B\	-cit	.	.	8f\	-cit	8dd\	-cit	8g/	8dd\
*	*	*	*	*	*Xij	*	*	*	*	*	*	*	*
4r	.	8dd\L	.	4r	.	4r	.	8f\	ste-	8dd\	ste-	4r	4r
.	.	.	16ee\LL	.	.	.	.	.	.	.	.	.	.
.	.	16cc\L	16dd\J	.	.	.	.	16e\L	-ri-	16cc\L	-ri-	.	.
.	.	16b\J	8ee\J	.	.	.	.	16d\J	.	16b\J	.	.	.
8r	.	8cc\J	.	8r	.	8r	.	8e\	-lem	8cc\	-lem	8r	8r
*	*	*	*	*	*	*	*	*	*Xij	*	*Xij	*	*
.	.	.	16ryy	.	.	.	.	.	.	.	.	.	.
!LO:LB:g=original	!	!LO:LB:g=original	!	!	!	!	!	!	!	!	!	!	!
=42	=42	=42	=42	=42	=42	=42	=42	=42	=42	=42	=42	=42	=42
4c\	.	8g\L	16ee\LL	8c\	in	8c\	in	8g\	in	8ee\	in	4cc\	4ee\
.	.	.	16cc\	.	.	.	.	.	.	.	.	.	.
.	.	8cc\	16g\	4c\	do-	4c\	do-	4g\	do-	4ee\	do-	.	.
.	.	.	16e\JJ	.	.	.	.	.	.	.	.	.	.
8C/	.	8cc\J	8ee\	.	.	.	.	.	.	.	.	8cc\	8ee\
4G\	.	4b\	4dd\	4G\	-mo	4B\	-mo	4g\	-mo	4dd\	-mo	8g/	4dd\
.	.	.	.	.	.	.	.	.	.	.	.	8r	.
!	!	!	!	!	!	!	!	!	!	!	!	!LO:TX:t=P:problem=w takcie jest za mało wartości rytmicznych w stosunku do metrum	!
!	!	!	!	!	!	!LO:N:vis=4	!	!	!	!	!	!LO:N:vis=2	!
8r	.	8r	8r	8r	.	8r	.	8r	.	8r	.	2..r	8r
!LO:N:vis=2	!	!	!	!	!	!LO:N:vis=2	!	!LO:N:vis=2	!	!LO:N:vis=2	!	!	!LO:N:vis=2
!LO:TX:t=P:problem=w takcie jest za mało wartości rytmicznych w stosunku do metrum	!	!	!	!	!	!LO:TX:t=P:problem=w takcie jest za mało wartości rytmicznych w stosunku do metrum	!	!LO:TX:t=P:problem=w takcie jest za mało wartości rytmicznych w stosunku do metrum	!	!LO:TX:t=P:problem=w takcie jest za mało wartości rytmicznych w stosunku do metrum	!	!	!LO:TX:t=P:problem=w takcie jest za mało wartości rytmicznych w stosunku do metrum
2.r	.	4c/	4c/	16C\LL	ma-	2.r	.	2.r	.	2.r	.	.	2.r
.	.	.	.	16E\	.	.	.	.	.	.	.	.	.
!	!	!	!	!LO:TX:a:i:t=Solo	!	!	!	!	!	!	!	!	!
.	.	.	.	16F\	.	.	.	.	.	.	.	.	.
.	.	.	.	16G\	.	.	.	.	.	.	.	.	.
.	.	8r	8r	16A\	.	.	.	.	.	.	.	.	.
.	.	.	.	16B\JJ	.	.	.	.	.	.	.	.	.
.	.	16c/LL	16c/LL	4c\	.	.	.	.	.	.	.	.	.
.	.	32d/L	16d/	.	.	.	.	.	.	.	.	.	.
.	.	32e/J	.	.	.	.	.	.	.	.	.	.	.
.	.	16f/	16e/	.	.	.	.	.	.	.	.	.	.
.	.	16g/	16f/	.	.	.	.	.	.	.	.	.	.
.	.	16a/	16g/	8C/	-trem	.	.	.	.	.	.	.	.
.	.	16b/JJ	32a/L	.	.	.	.	.	.	.	.	.	.
.	.	.	32b/JJJ	.	.	.	.	.	.	.	.	.	.
!	!	!	!LO:LB:g=original	!	!	!LO:LB:g=original	!	!	!	!	!	!	!
=43	=43	=43	=43	=43	=43	=43	=43	=43	=43	=43	=43	=43	=43
!LO:N:vis=2	!	!	!	!	!	!LO:N:vis=2	!	!LO:N:vis=2	!	!LO:N:vis=2	!	!LO:N:vis=2	!LO:N:vis=2
*	*	*	*	*	*ij	*	*	*	*	*	*	*	*
!LO:TX:t=P:problem=w takcie jest za mało wartości rytmicznych w stosunku do metrum	!	!	!	!	!	!	!	!LO:TX:t=P:problem=w takcie jest za mało wartości rytmicznych w stosunku do metrum	!	!LO:TX:t=P:problem=w takcie jest za mało wartości rytmicznych w stosunku do metrum	!	!LO:TX:t=P:problem=w takcie jest za mało wartości rytmicznych w stosunku do metrum	!LO:TX:t=P:problem=w takcie jest za mało wartości rytmicznych w stosunku do metrum
2.r	.	4cc\	4cc\	16C\L	ma-	2..r	.	2.r	.	2.r	.	2.r	2.r
.	.	.	.	16E\J	.	.	.	.	.	.	.	.	.
.	.	.	.	(>32F\L	.	.	.	.	.	.	.	.	.
.	.	.	.	32E\	.	.	.	.	.	.	.	.	.
.	.	.	.	32F\	.	.	.	.	.	.	.	.	.
.	.	.	.	32G\J)	.	.	.	.	.	.	.	.	.
.	.	8c/	8c/	(>32A\L	.	.	.	.	.	.	.	.	.
.	.	.	.	32G\	.	.	.	.	.	.	.	.	.
.	.	.	.	32A\	.	.	.	.	.	.	.	.	.
.	.	.	.	32B\J)	.	.	.	.	.	.	.	.	.
.	.	16c/L	16c/LL	4c\	.	.	.	.	.	.	.	.	.
.	.	16e/J	16e/JJ	.	.	.	.	.	.	.	.	.	.
.	.	32f/L	32f/LLL	.	.	.	.	.	.	.	.	.	.
.	.	32e/	32e/	.	.	.	.	.	.	.	.	.	.
.	.	32f/	32f/	.	.	.	.	.	.	.	.	.	.
.	.	32g/J	32g/JJJ	.	.	.	.	.	.	.	.	.	.
.	.	32a/L	32a/LLL	8C/	-trem	.	.	.	.	.	.	.	.
*	*	*	*	*	*Xij	*	*	*	*	*	*	*	*
.	.	32g/	32g/	.	.	.	.	.	.	.	.	.	.
.	.	32a/	32a/	.	.	.	.	.	.	.	.	.	.
.	.	32b/J	32b/JJJ	.	.	.	.	.	.	.	.	.	.
!	!	!	!	!	!	!LO:TX:t=P:problem=w takcie jest za mało wartości rytmicznych w stosunku do metrum	!	!	!	!	!	!	!
16F\LL	.	4cc\	4cc\	16F\	Fi-	.	.	16a\	Fi-	16cc\	Fi-	8cc\L	8cc\L
16E\J	.	.	.	16E\	-li-	.	.	16g\	-li-	16cc\	-li-	.	.
8F\	.	.	.	8F\	-o-	16c\	Fi-	8a\	-o-	8cc\	-o-	8cc\	8cc\
.	.	.	.	.	.	16c\	-li-	.	.	.	.	.	.
!	!	!	!	!	!	!	!	!	!	!LO:LB:g=original	!	!	!
8D\J	.	8dd\	8b\	8D\	-rum	8c\	-o-	16f\	-rum	8b\	-rum	8dd\J	8dd\J
.	.	.	.	.	.	.	.	16f\	lae-	.	.	.	.
!LO:TX:a:t=P:problem=mixed beam	!	!	!	!	!	!	!	!	!	!	!	!	!
8C\L	.	8ee\L	8cc\L	8C/	lae-	16d\	-rum	(>8e\	-tan-	8cc\	lae-	4g/	8ee\L
.	.	.	.	.	.	16G/	lae-	.	.	.	.	.	.
!	!	!	!	!LO:TX:a:t=P:problem=mixed beam	!	!	!	!	!	!	!	!	!
8G\	.	8dd\	8cc\	(>8G\L	-tan-	4G/	-tan-	4d\)	.	8cc\L	-tan-	.	8.dd\
8GG/J	.	8cc\J	8b\J	8GG/J)	.	.	.	.	.	8b\J	.	8g/	.
.	.	.	.	.	.	.	.	.	.	.	.	.	16dd\Jk
=44	=44	=44||	=44	=44	=44	=44	=44	=44	=44	=44	=44	=44	=44
*M4/4	*	*M4/4	*M4/4	*M4/4	*	*M4/4	*	*M4/4	*	*M4/4	*	*M4/4	*M4/4
*met(c)	*	*met(c)	*met(c)	*met(c)	*	*met(c)	*	*met(c)	*	*met(c)	*	*met(c)	*met(c)
8c\L	.	8cc\L	8cc\L	4C/	-tem	4G/	tem	4e\	-tem	4cc\	-tem	4e/	4cc\
!LO:TX:a:t=solo	!	!	!	!	!	!	!	!	!	!	!	!	!
16B\L	.	16b\L	16b\L	.	.	.	.	.	.	.	.	.	.
16A\JJ	.	16a\JJ	16a\JJ	.	.	.	.	.	.	.	.	.	.
16G\LL	.	16g/LL	16g/LL	4r	.	4r	.	4r	.	4r	.	4r	4r
16F\	.	16f/	16f/	.	.	.	.	.	.	.	.	.	.
16E\	.	16e/	16e/	.	.	.	.	.	.	.	.	.	.
16D\JJ	.	16d/JJ	16d/JJ	.	.	.	.	.	.	.	.	.	.
16C\LL	.	16c/LL	16c/LL	2r	.	2r	.	2r	.	2r	.	2r	2r
16A\	.	16a/	16a/	.	.	.	.	.	.	.	.	.	.
16G\	.	16g/	16g/	.	.	.	.	.	.	.	.	.	.
16F\JJ	.	16f/JJ	16f/JJ	.	.	.	.	.	.	.	.	.	.
16E\LL	.	16e/LL	16g/LL	.	.	.	.	.	.	.	.	.	.
16D\	.	16d/	16f/	.	.	.	.	.	.	.	.	.	.
16C\	.	16c/	16e/	.	.	.	.	.	.	.	.	.	.
16BB\JJ	.	16B/JJ	16d/JJ	.	.	.	.	.	.	.	.	.	.
!	!	!	!	!	!	!	!	!LO:LB:g=original	!	!	!	!	!
=45	=45	=45	=45	=45	=45	=45	=45	=45	=45	=45	=45	=45	=45
!	!	!	!	!	!	!	!	!LO:TX:b:t=Gloria	!	!	!	!	!
16C\LL	.	16c/LL	16c/LL	0r	.	00r	.	00r	.	00r	.	00r	00r
16F\	.	16f/	16f/	.	.	.	.	.	.	.	.	.	.
16E\	.	16e/	16e/	.	.	.	.	.	.	.	.	.	.
16D\JJ	.	16d/JJ	16d/JJ	.	.	.	.	.	.	.	.	.	.
16C/LL	.	16c/LL	16c/LL	.	.	.	.	.	.	.	.	.	.
16BB/	.	16B/	16B/	.	.	.	.	.	.	.	.	.	.
16AA/	.	16A/	16A/	.	.	.	.	.	.	.	.	.	.
16GG/JJ	.	16G/JJ	16G/JJ	.	.	.	.	.	.	.	.	.	.
!	!	!LO:LB:g=original	!	!	!	!	!	!	!	!	!	!	!
16AA/LL	.	16A/LL	16A/LL	.	.	.	.	.	.	.	.	.	.
16BB/	.	16B/	16B/	.	.	.	.	.	.	.	.	.	.
16C/	.	16c/	16c/	.	.	.	.	.	.	.	.	.	.
16D/JJ	.	16d/JJ	16d/JJ	.	.	.	.	.	.	.	.	.	.
16E\LL	.	16e/LL	16e/LL	.	.	.	.	.	.	.	.	.	.
16F\	.	16f/	16f/	.	.	.	.	.	.	.	.	.	.
16G\	.	16g/	16g/	.	.	.	.	.	.	.	.	.	.
16E\JJ	.	16e/JJ	16e/JJ	.	.	.	.	.	.	.	.	.	.
=46	=46	=46	=46	=46	=46	=46	=46	=46	=46	=46	=46	=46	=46
16B\LL	.	16b\LL	16b\LL	.	.	.	.	.	.	.	.	.	.
16c\	.	16cc\	16cc\	.	.	.	.	.	.	.	.	.	.
16d\	.	16dd\	16dd\	.	.	.	.	.	.	.	.	.	.
16B\JJ	.	16b\JJ	16b\JJ	.	.	.	.	.	.	.	.	.	.
16C\LL	.	16c/LL	16c/LL	.	.	.	.	.	.	.	.	.	.
16D\	.	16d/	16d/	.	.	.	.	.	.	.	.	.	.
16E\	.	16e/	16e/	.	.	.	.	.	.	.	.	.	.
16C\JJ	.	16c/JJ	16c/JJ	.	.	.	.	.	.	.	.	.	.
!LO:LB:g=original	!	!	!	!	!	!	!	!	!	!	!	!	!
16F\LL	.	16f/LL	16f/LL	.	.	.	.	.	.	.	.	.	.
16G\	.	16g/	16g/	.	.	.	.	.	.	.	.	.	.
16A\	.	16a/	16a/	.	.	.	.	.	.	.	.	.	.
16E\JJ	.	16e/JJ	16e/JJ	.	.	.	.	.	.	.	.	.	.
!LO:TX:a:t=P:problem=mixed beam	!	!	!LO:LB:g=original	!	!	!	!	!	!	!	!	!	!
16F\LL	.	16f/LL	16f/LL	.	.	.	.	.	.	.	.	.	.
!	!	!LO:TX:b:t=d	!	!	!	!	!	!	!	!	!	!	!
16D\	.	16d/	16d/	.	.	.	.	.	.	.	.	.	.
16A\	.	16g/	16g/	.	.	.	.	.	.	.	.	.	.
16AA/JJ	.	16G/JJ	16G/JJ	.	.	.	.	.	.	.	.	.	.
!	!	!	!	!LO:LB:g=original	!	!	!	!	!	!	!	!	!
=47	=47	=47	=47	=47	=47	=47	=47	=47	=47	=47	=47	=47	=47
4C/	.	4c/	4c/	8c\L	Glo-	.	.	.	.	.	.	.	.
.	.	.	.	16B\L	.	.	.	.	.	.	.	.	.
.	.	.	.	16A\JJ	.	.	.	.	.	.	.	.	.
4r	.	4r	4r	16G\LL	.	.	.	.	.	.	.	.	.
.	.	.	.	16F\	.	.	.	.	.	.	.	.	.
.	.	.	.	16E\	.	.	.	.	.	.	.	.	.
.	.	.	.	16D\JJ	.	.	.	.	.	.	.	.	.
4C/	.	4c/	4c/	16C\LL	.	.	.	.	.	.	.	.	.
.	.	.	.	16A\	.	.	.	.	.	.	.	.	.
.	.	.	.	16G\	.	.	.	.	.	.	.	.	.
.	.	.	.	16F\JJ	.	.	.	.	.	.	.	.	.
4r	.	4r	4r	16E\LL	.	.	.	.	.	.	.	.	.
.	.	.	.	16D\	.	.	.	.	.	.	.	.	.
.	.	.	.	16C\	.	.	.	.	.	.	.	.	.
.	.	.	.	16BB\JJ	.	.	.	.	.	.	.	.	.
=48	=48	=48	=48	=48	=48	=48	=48	=48	=48	=48	=48	=48	=48
8c\L	.	8cc\L	8cc\L	8.C/	-ri-	.	.	.	.	.	.	.	.
16B\L	.	16b\L	16b\L	.	.	.	.	.	.	.	.	.	.
16A\JJ	.	16a\JJ	16a\JJ	16C/	-a	.	.	.	.	.	.	.	.
16G\LL	.	16g/LL	16g/LL	8GG/	.	.	.	.	.	.	.	.	.
16F\	.	16f/	16f/	.	.	.	.	.	.	.	.	.	.
16E\	.	16e/	16e/	8B\	Pa-	.	.	.	.	.	.	.	.
16D\JJ	.	16d/JJ	16d/JJ	.	.	.	.	.	.	.	.	.	.
16C\LL	.	16c/LL	16c/LL	4c\	-tri	.	.	.	.	.	.	.	.
16A\	.	16a/	16a/	.	.	.	.	.	.	.	.	.	.
16G\	.	16g/	16g/	.	.	.	.	.	.	.	.	.	.
16F\JJ	.	16f/JJ	16f/JJ	.	.	.	.	.	.	.	.	.	.
16E\LL	.	16e/LL	16e/LL	8r	.	.	.	.	.	.	.	.	.
16D\	.	16d/	16d/	.	.	.	.	.	.	.	.	.	.
16C\	.	16c/	16c/	8G\	Pa-	.	.	.	.	.	.	.	.
16BB\JJ	.	16B/JJ	16B/JJ	.	.	.	.	.	.	.	.	.	.
=49	=49	=49	=49	=49	=49	=49	=49	=49	=49	=49	=49	=49	=49
16C\LL	.	16c/LL	16c/LL	16G\LL	-tri	00r	.	00r	.	00r	.	00r	00r
16F\	.	16f/	16f/	16A\JJ	.	.	.	.	.	.	.	.	.
16E\	.	16e/	16e/	16G\LL	et	.	.	.	.	.	.	.	.
16D\JJ	.	16d/JJ	16d/JJ	16F\JJ	.	.	.	.	.	.	.	.	.
16C/LL	.	16c/LL	16c/LL	16E\LL	Fi-	.	.	.	.	.	.	.	.
16BB/	.	16B/	16B/	16D\	.	.	.	.	.	.	.	.	.
16AA/	.	16A/	16A/	16C\	-li-	.	.	.	.	.	.	.	.
16GG/JJ	.	16G/JJ	16G/JJ	16BB\JJ	.	.	.	.	.	.	.	.	.
16AA/LL	.	16A/LL	16A/LL	4C\	-o	.	.	.	.	.	.	.	.
16BB/	.	16B/	16B/	.	.	.	.	.	.	.	.	.	.
16C/	.	16c/	16c/	.	.	.	.	.	.	.	.	.	.
16D/JJ	.	16d/JJ	16d/JJ	.	.	.	.	.	.	.	.	.	.
16E\LL	.	16e/LL	16e/LL	8G\	et	.	.	.	.	.	.	.	.
16F\	.	16f/	16f/	.	.	.	.	.	.	.	.	.	.
16G\	.	16g/	16g/	8G\	Spi-	.	.	.	.	.	.	.	.
16E\JJ	.	16e/JJ	16e/JJ	.	.	.	.	.	.	.	.	.	.
=50	=50	=50	=50	=50	=50	=50	=50	=50	=50	=50	=50	=50	=50
16B\LL	.	16b\LL	16b\LL	4G\	-ri-	.	.	.	.	.	.	.	.
16c\	.	16cc\	16cc\	.	.	.	.	.	.	.	.	.	.
16d\	.	16dd\	16dd\	.	.	.	.	.	.	.	.	.	.
16B\JJ	.	16b\JJ	16b\JJ	.	.	.	.	.	.	.	.	.	.
16C\LL	.	16c/LL	16c/LL	8G\	-tu-	.	.	.	.	.	.	.	.
16D\	.	16d/	16d/	.	.	.	.	.	.	.	.	.	.
16E\	.	16e/	16e/	8G\	-i	.	.	.	.	.	.	.	.
16C\JJ	.	16c/JJ	16c/JJ	.	.	.	.	.	.	.	.	.	.
!	!	!LO:LB:g=original	!	!	!	!	!	!	!	!	!	!	!
16F\LL	.	16f/LL	16f/LL	8A\	San-	.	.	.	.	.	.	.	.
16G\	.	16g/	16g/	.	.	.	.	.	.	.	.	.	.
16A\	.	16a/	16a/	4c\	.	.	.	.	.	.	.	.	.
16E\JJ	.	16e/JJ	16e/JJ	.	.	.	.	.	.	.	.	.	.
!LO:TX:a:t=P:problem=mixed beam	!	!	!	!	!	!	!	!	!	!	!	!	!
16F\LL	.	16f/LL	16f/LL	.	.	.	.	.	.	.	.	.	.
16D\	.	16d/	16d/	.	.	.	.	.	.	.	.	.	.
16G\	.	16g/	16g/	8B\	.	.	.	.	.	.	.	.	.
16GG/JJ	.	16G/JJ	16G/JJ	.	.	.	.	.	.	.	.	.	.
!LO:PB:g=original	!	!	!	!	!	!	!	!	!	!	!	!	!
=51	=51	=51	=51	=51	=51	=51	=51	=51	=51	=51	=51	=51	=51
4C/	.	4c/	4c/	8c\	-cto	.	.	.	.	.	.	.	.
!	!	!	!	!LO:LB:g=original	!	!	!	!	!	!	!	!	!
.	.	.	.	8.e\L	Glo-	.	.	.	.	.	.	.	.
4r	.	4r	4r	.	.	.	.	.	.	.	.	.	.
.	.	.	.	16d\	.	.	.	.	.	.	.	.	.
.	.	.	.	16c\	.	.	.	.	.	.	.	.	.
.	.	.	.	16B\J	.	.	.	.	.	.	.	.	.
4C/	.	4c/	4c/	16A\LL	.	.	.	.	.	.	.	.	.
.	.	.	.	16B\J	.	.	.	.	.	.	.	.	.
.	.	.	.	8.c\J	.	.	.	.	.	.	.	.	.
4r	.	4r	4r	.	.	.	.	.	.	.	.	.	.
.	.	.	.	16B\LL	.	.	.	.	.	.	.	.	.
.	.	.	.	16A\	.	.	.	.	.	.	.	.	.
.	.	.	.	16G\JJ	.	.	.	.	.	.	.	.	.
!	!	!	!LO:LB:g=original	!	!	!	!	!	!	!	!	!	!
=52	=52	=52	=52	=52	=52	=52	=52	=52	=52	=52	=52	=52	=52
4D\	.	4d/	4d/	16F#X\LL	.	.	.	.	.	.	.	.	.
.	.	.	.	16A\	.	.	.	.	.	.	.	.	.
.	.	.	.	16D\	.	.	.	.	.	.	.	.	.
.	.	.	.	16C\JJ	.	.	.	.	.	.	.	.	.
4BB\	.	4G/	4G/	16BB\LL	.	.	.	.	.	.	.	.	.
.	.	.	.	16D\	.	.	.	.	.	.	.	.	.
.	.	.	.	16G\	.	.	.	.	.	.	.	.	.
.	.	.	.	16B\JJ	.	.	.	.	.	.	.	.	.
4C\	.	4c/	4c/	16A\LL	.	.	.	.	.	.	.	.	.
.	.	.	.	16c\	.	.	.	.	.	.	.	.	.
.	.	.	.	16B\	.	.	.	.	.	.	.	.	.
.	.	.	.	16A\JJ	.	.	.	.	.	.	.	.	.
4D\	#	4d/	4d/	16D\LL	.	.	.	.	.	.	.	.	.
.	.	.	.	16F#X\	.	.	.	.	.	.	.	.	.
.	.	.	.	16A\	.	.	.	.	.	.	.	.	.
.	.	.	.	16c\JJ	.	.	.	.	.	.	.	.	.
=53	=53	=53	=53	=53	=53	=53	=53	=53	=53	=53	=53	=53	=53
4GG/	.	4B/	4B/	16B\LL	.	00rc	.	00re	.	00rcc	.	00ree	00ree
.	.	.	.	16d\	.	.	.	.	.	.	.	.	.
.	.	.	.	16G\	.	.	.	.	.	.	.	.	.
.	.	.	.	16Fn\JJ	.	.	.	.	.	.	.	.	.
4C/	.	2c/	2c/	16E/LL	.	.	.	.	.	.	.	.	.
.	.	.	.	16D/	.	.	.	.	.	.	.	.	.
.	.	.	.	16C/	.	.	.	.	.	.	.	.	.
.	.	.	.	16BB/JJ	.	.	.	.	.	.	.	.	.
4BB/	.	.	.	16c\LL	.	.	.	.	.	.	.	.	.
.	.	.	.	16e\	.	.	.	.	.	.	.	.	.
.	.	.	.	16A\	.	.	.	.	.	.	.	.	.
.	.	.	.	16G\JJ	.	.	.	.	.	.	.	.	.
4D\	.	4d/	4d/	16F#X\LL	.	.	.	.	.	.	.	.	.
.	.	.	.	16E\	.	.	.	.	.	.	.	.	.
.	.	.	.	16D\	.	.	.	.	.	.	.	.	.
.	.	.	.	16C\JJ	.	.	.	.	.	.	.	.	.
=54	=54	=54	=54	=54	=54	=54	=54	=54	=54	=54	=54	=54	=54
16GG/LL	.	2r	2r	8BB/	.	.	.	.	.	.	.	.	.
16C/	.	.	.	.	.	.	.	.	.	.	.	.	.
16D/	.	.	.	16C/	-ri-	.	.	.	.	.	.	.	.
16DD/JJ	.	.	.	16C/	-a	.	.	.	.	.	.	.	.
16GG/LL	.	.	.	8.D/	Glo-	.	.	.	.	.	.	.	.
16C/	.	.	.	.	.	.	.	.	.	.	.	.	.
16D/	.	.	.	.	.	.	.	.	.	.	.	.	.
16DD/JJ	.	.	.	16DD/	-ri-	.	.	.	.	.	.	.	.
8G\L	.	8g/L	8g/L	4GG/	-a	.	.	.	.	.	.	.	.
16F#X\L	.	16f#X/L	16f#X/L	.	.	.	.	.	.	.	.	.	.
16E\JJ	.	16e/JJ	16e/JJ	.	.	.	.	.	.	.	.	.	.
16D/LL	.	16d/LL	16d/LL	4r	.	.	.	.	.	.	.	.	.
16C/	.	16c/	16c/	.	.	.	.	.	.	.	.	.	.
16BB/	.	16B/	16B/	.	.	.	.	.	.	.	.	.	.
16AA/JJ	.	16A/JJ	16A/JJ	.	.	.	.	.	.	.	.	.	.
!	!	!	!	!LO:LB:g=original	!	!	!	!	!	!	!	!	!
=55	=55	=55	=55	=55	=55	=55	=55	=55	=55	=55	=55	=55	=55
!	!	!LO:TX:a:t=P:problem=mixed beam	!LO:TX:a:t=P:problem=mixed beam	!	!	!	!	!	!	!	!	!	!
16GG/LL	.	16G/LL	16G/LL	0r	.	.	.	.	.	.	.	.	.
16E/	.	16ee\	16ee\	.	.	.	.	.	.	.	.	.	.
16D/	.	16dd\	16dd\	.	.	.	.	.	.	.	.	.	.
16C/JJ	.	16cc\JJ	16cc\JJ	.	.	.	.	.	.	.	.	.	.
16BB/LL	.	16b\LL	16b\LL	.	.	.	.	.	.	.	.	.	.
16AA/	.	16a\	16a\	.	.	.	.	.	.	.	.	.	.
16GG/	.	16g\	16g\	.	.	.	.	.	.	.	.	.	.
16FF#X/JJ	.	16f#X\JJ	16f#X\JJ	.	.	.	.	.	.	.	.	.	.
!LO:TX:a:t=P:problem=mixed beam	!	!	!	!	!	!	!	!	!	!	!	!	!
16GG/LL	.	16g\LL	16g\LL	.	.	.	.	.	.	.	.	.	.
16c\	.	16cc\	16cc\	.	.	.	.	.	.	.	.	.	.
16B\	.	16b\	16b\	.	.	.	.	.	.	.	.	.	.
16A\JJ	.	16a\JJ	16a\JJ	.	.	.	.	.	.	.	.	.	.
16G\LL	.	16g/LL	16g/LL	.	.	.	.	.	.	.	.	.	.
16F#X\	.	16f#X/	16f#X/	.	.	.	.	.	.	.	.	.	.
16E\	.	16e/	16e/	.	.	.	.	.	.	.	.	.	.
16D\JJ	.	16d/JJ	16d/JJ	.	.	.	.	.	.	.	.	.	.
=56	=56	=56	=56	=56	=56	=56	=56	=56	=56	=56	=56	=56	=56
16E\LL	.	16e/LL	16e/LL	.	.	.	.	.	.	.	.	.	.
16F#X\	.	16f#X/	16f#X/	.	.	.	.	.	.	.	.	.	.
16G\	.	16g/	16g/	.	.	.	.	.	.	.	.	.	.
16A\JJ	.	16a/JJ	16a/JJ	.	.	.	.	.	.	.	.	.	.
16B\LL	.	16b\LL	16b\LL	.	.	.	.	.	.	.	.	.	.
16c\	.	16cc\	16cc\	.	.	.	.	.	.	.	.	.	.
16d\	.	16dd\	16dd\	.	.	.	.	.	.	.	.	.	.
16B\JJ	.	16b\JJ	16b\JJ	.	.	.	.	.	.	.	.	.	.
16F#X\LL	.	16f#/LL	16f#X/LL	.	.	.	.	.	.	.	.	.	.
16G\	.	16g/	16g/	.	.	.	.	.	.	.	.	.	.
16A\	.	16a/	16a/	.	.	.	.	.	.	.	.	.	.
16F#\JJ	.	16f#/JJ	16f#/JJ	.	.	.	.	.	.	.	.	.	.
!LO:LB:g=original	!	!	!	!	!	!	!	!	!	!	!	!	!
16GG/LL	.	16G/LL	16G/LL	.	.	.	.	.	.	.	.	.	.
16AA/	.	16A/	16A/	.	.	.	.	.	.	.	.	.	.
16BB/	.	16B/	16B/	.	.	.	.	.	.	.	.	.	.
16GG/JJ	.	16G/JJ	16G/JJ	.	.	.	.	.	.	.	.	.	.
!	!	!LO:LB:g=original	!	!	!	!	!	!	!	!	!	!	!
=57	=57	=57	=57	=57	=57	=57	=57	=57	=57	=57	=57	=57	=57
16C/LL	.	16c/LL	16c/LL	2r	.	00rc	.	00re	.	00rcc	.	00ree	00ree
16D/	.	16d/	16d/	.	.	.	.	.	.	.	.	.	.
16E/	.	16e/	16e/	.	.	.	.	.	.	.	.	.	.
16BB/JJ	.	16B/JJ	16B/JJ	.	.	.	.	.	.	.	.	.	.
16C/LL	.	8c/L	8c/L	.	.	.	.	.	.	.	.	.	.
16AA/	.	.	.	.	.	.	.	.	.	.	.	.	.
16D/	.	8d/J	8d/J	.	.	.	.	.	.	.	.	.	.
16DD/JJ	.	.	.	.	.	.	.	.	.	.	.	.	.
4GG/	.	4G/	4G/	8r	.	.	.	.	.	.	.	.	.
.	.	.	.	16GG/LL	Glo-	.	.	.	.	.	.	.	.
.	.	.	.	16AA/JJ	.	.	.	.	.	.	.	.	.
!	!	!	!LO:LB:g=original	!	!	!	!	!	!	!	!	!	!
16GG/LL	.	16G/LL	16G/LL	16BB/LL	.	.	.	.	.	.	.	.	.
16AA/	.	16A/	16A/	16C/	.	.	.	.	.	.	.	.	.
16BB/	.	16B/	16B/	16D/	.	.	.	.	.	.	.	.	.
16C/JJ	.	16c/JJ	16c/JJ	16E/JJ	.	.	.	.	.	.	.	.	.
=58	=58	=58	=58	=58	=58	=58	=58	=58	=58	=58	=58	=58	=58
8D\L	7	8d/L	8d/L	8.Fn\	.	.	.	.	.	.	.	.	.
8BB\J	.	8B/J	8B/J	.	.	.	.	.	.	.	.	.	.
.	.	.	.	16F\	-ri-	.	.	.	.	.	.	.	.
16C\LL	.	16c/LL	16c/LL	4F\	-a	.	.	.	.	.	.	.	.
16D\	.	16d/	16d/	.	.	.	.	.	.	.	.	.	.
16E\	.	16e/	16e/	.	.	.	.	.	.	.	.	.	.
16C\JJ	.	16c/JJ	16c/JJ	.	.	.	.	.	.	.	.	.	.
4Fn\	.	4f/	4fn/	8r	.	.	.	.	.	.	.	.	.
.	.	.	.	16A\LL	Pa-	.	.	.	.	.	.	.	.
.	.	.	.	16G\JJ	.	.	.	.	.	.	.	.	.
8r	.	8r	8r	16F\LL	.	.	.	.	.	.	.	.	.
.	.	.	.	16E\	.	.	.	.	.	.	.	.	.
8FF/	6	8f/	8f/	16D\	.	.	.	.	.	.	.	.	.
.	5	.	.	16C\JJ	.	.	.	.	.	.	.	.	.
=59	=59	=59	=59	=59	=59	=59	=59	=59	=59	=59	=59	=59	=59
4GG/	.	4g/	4g/	8BB/	-tri	.	.	.	.	.	.	.	.
.	.	.	.	16GG/L	glo-	.	.	.	.	.	.	.	.
.	.	.	.	16AA/J	.	.	.	.	.	.	.	.	.
16GG/LL	.	16G/LL	16G/LL	16BB/LL	.	.	.	.	.	.	.	.	.
16AA/	.	16A/	16A/	16C/	.	.	.	.	.	.	.	.	.
16BB/	.	16B/	16B/	16D/	.	.	.	.	.	.	.	.	.
16GG/JJ	.	16G/JJ	16G/JJ	16BB/JJ	.	.	.	.	.	.	.	.	.
!	!	!	!	!LO:TX:a:t=P:problem=mixed beam	!	!	!	!	!	!	!	!	!
4EE/	.	4c/	4c/	16GG/LL	.	.	.	.	.	.	.	.	.
.	.	.	.	16G\	.	.	.	.	.	.	.	.	.
.	.	.	.	16F\	.	.	.	.	.	.	.	.	.
.	.	.	.	16G\JJ	.	.	.	.	.	.	.	.	.
8r	.	8r	8r	16GG/LL	.	.	.	.	.	.	.	.	.
.	.	.	.	16C/	.	.	.	.	.	.	.	.	.
8C/	.	8e/	8e/	16E/	.	.	.	.	.	.	.	.	.
.	.	.	.	16G/JJ	.	.	.	.	.	.	.	.	.
=60	=60	=60	=60	=60	=60	=60	=60	=60	=60	=60	=60	=60	=60
!	!	!	!	!LO:TX:a:t=P:problem=mixed beam	!	!	!	!	!	!	!	!	!
4BB/	5	4d/	4c/	16F\LL	.	.	.	.	.	.	.	.	.
.	6	.	.	16GG/	.	.	.	.	.	.	.	.	.
.	.	.	.	16BB/	.	.	.	.	.	.	.	.	.
.	.	.	.	16D/JJ	.	.	.	.	.	.	.	.	.
8r	.	8r	8r	16GG/LL	.	.	.	.	.	.	.	.	.
.	.	.	.	16BB/	.	.	.	.	.	.	.	.	.
8B\	.	8b\	8b\	16D/	.	.	.	.	.	.	.	.	.
.	.	.	.	16F/JJ	.	.	.	.	.	.	.	.	.
8c\L	.	8cc\L	8cc\L	8E\	.	.	.	.	.	.	.	.	.
16B\L	.	16b\L	16b\L	16D\LL	-ri-	.	.	.	.	.	.	.	.
16A\JJ	.	16a\JJ	16a\JJ	16C\JJ	.	.	.	.	.	.	.	.	.
16G\LL	.	16g/LL	16g/LL	4BB/	-a	.	.	.	.	.	.	.	.
16F\	.	16f/	16f/	.	.	.	.	.	.	.	.	.	.
16E\	.	16e/	16e/	.	.	.	.	.	.	.	.	.	.
16D\JJ	.	16d/JJ	16d/JJ	.	.	.	.	.	.	.	.	.	.
=61	=61	=61	=61	=61	=61	=61	=61	=61	=61	=61	=61	=61	=61
16C\LL	.	16c/LL	16c/LL	8c\L	Glo-	0r	.	0r	.	0r	.	0r	0rgg
16A\	.	16a/	16a/	.	.	.	.	.	.	.	.	.	.
16G\	.	16g/	16g/	16B\L	.	.	.	.	.	.	.	.	.
16F\JJ	.	16f/JJ	16f/JJ	16A\JJ	.	.	.	.	.	.	.	.	.
16E\LL	.	16e/LL	16e/LL	16G\LL	.	.	.	.	.	.	.	.	.
16D\	.	16d/	16d/	16F\	.	.	.	.	.	.	.	.	.
16C\	.	16c/	16c/	16E\	.	.	.	.	.	.	.	.	.
16BB\JJ	.	16B/JJ	16B/JJ	16D\JJ	.	.	.	.	.	.	.	.	.
!	!	!	!	!LO:LB:g=original	!	!	!	!	!	!	!	!	!
16C\LL	.	16c/LL	16c/LL	16E\LL	.	.	.	.	.	.	.	.	.
16F\	.	16e/	16f/	16A\	.	.	.	.	.	.	.	.	.
16E\	.	16e/	16e/	16G\	.	.	.	.	.	.	.	.	.
16D\JJ	.	16c/JJ	16d/JJ	16F\JJ	.	.	.	.	.	.	.	.	.
!LO:LB:g=original	!	!	!	!	!	!	!	!	!	!	!	!	!
16C/LL	.	16c/LL	16c/LL	16E\LL	.	.	.	.	.	.	.	.	.
16BB/	.	16B/	16B/	16D\	.	.	.	.	.	.	.	.	.
16AA/	.	16A/	16A/	16C\	.	.	.	.	.	.	.	.	.
16GG/JJ	.	16G/JJ	16G/JJ	16BB\JJ	.	.	.	.	.	.	.	.	.
!	!	!LO:LB:g=original	!	!	!	!	!	!	!	!	!	!	!
=62	=62	=62	=62	=62	=62	=62	=62	=62	=62	=62	=62	=62	=62
16AA/LL	.	16A/LL	16A/LL	8.F\	.	.	.	.	.	.	.	.	.
16BB/	.	16B/	16B/	.	.	.	.	.	.	.	.	.	.
16C/	.	16c/	16c/	.	.	.	.	.	.	.	.	.	.
16D/JJ	.	16d/JJ	16d/JJ	16F\	-ri-	.	.	.	.	.	.	.	.
16E\LL	.	16e/LL	16e/LL	4C/	-a	.	.	.	.	.	.	.	.
16F\	.	16f/	16f/	.	.	.	.	.	.	.	.	.	.
16G\	.	16g/	16g/	.	.	.	.	.	.	.	.	.	.
16E\JJ	.	16e/JJ	16e/JJ	.	.	.	.	.	.	.	.	.	.
*	*	*	*	*	*ij	*	*	*	*	*	*	*	*
!	!	!	!LO:LB:g=original	!	!	!	!	!	!	!	!	!	!
16F\LL	.	16f/LL	16f/LL	16F\LL	Glo-	.	.	.	.	.	.	.	.
16G\	.	16g/	16g/	16G\	.	.	.	.	.	.	.	.	.
16A\	.	16a/	16a/	16A\	.	.	.	.	.	.	.	.	.
16E\JJ	.	16e/JJ	16e/JJ	16E\JJ	.	.	.	.	.	.	.	.	.
!LO:TX:a:t=P:problem=mixed beam	!	!	!	!	!	!	!	!	!	!	!	!	!
16F/LL	.	16f/LL	16f/LL	8F\	-ri-	.	.	.	.	.	.	.	.
16D/	.	16d/	16d/	.	.	.	.	.	.	.	.	.	.
16G/	.	16g/	16g/	8G\	.	.	.	.	.	.	.	.	.
16GG/JJ	.	16G/JJ	16G/JJ	.	.	.	.	.	.	.	.	.	.
=63	=63	=63	=63	=63	=63	=63	=63	=63	=63	=63	=63	=63	=63
!	!	!	!	!	!	!	!	!LO:TX:a:t=all(egro)	!	!LO:TX:a:t=all(egro)	!	!	!
!LO:TX:a:t=Tutti	!	!LO:TX:a:t=P:problem=mixed beam	!LO:TX:a:t=P:problem=mixed beam	!	!	!	!	!	!	!	!	!	!
!LO:TX:a:t=P:problem=mixed beam	!	!	!	!	!	!	!	!	!	!	!	!	!
8C/L	.	8c/L	16c/LL	8C/	-a	8r	.	8r	.	8r	.	8g/L	8g/L
*	*	*	*	*	*Xij	*	*	*	*	*	*	*	*
.	.	.	16gg\	.	.	.	.	.	.	.	.	.	.
16c\L	.	16ee\L	16gg\	16c\	Si-	16c\	Si-	16g\	Si-	16ee\	Si-	16g/L	16g/L
16B\JJ	.	16dd\JJ	16gg\JJ	16B\	-cut	16B\	-cut	16g\	-cut	16dd\	-cut	16g/JJ	16g/JJ
*	*	*	*tremolo	*	*	*	*	*	*	*	*	*	*
!	!	!	!	!	!	!	!	!	!	!	!	!	!LO:LB:g=original
8c\L	.	8ee\L	16gg\LL	8c\	e-	8c\	e-	8g\	e-	8ee\	e-	16g/LL	16g/LL
.	.	.	16gg\	.	.	.	.	.	.	.	.	16g/	16g/
8G\J	.	8b\J	16gg\	8G\	-rat	8d\	-rat	8g\	-rat	8b\	-rat	16g/	16g/
.	.	.	16gg\JJ	.	.	.	.	.	.	.	.	16g/JJ	16g/JJ
8r	.	8r	16gg\LL	8r	.	8r	.	8r	.	8r	.	8g/L	8g/L
.	.	.	16gg\	.	.	.	.	.	.	.	.	.	.
*	*	*	*	*	*	*	*	*	*	*	*ij	*	*
!	!	!	!	!	!	!LO:TX:t=P:problem=tekst bardzo nieczytelny	!	!	!	!	!	!	!
16c\LL	.	16ee\LL	16gg\	16c\	in	16c\	in	16g\	in	16ee\	Si-	16g/L	16g/L
16B\JJ	.	16dd\JJ	16gg\JJ	16B\	prin-	16B\	prin-	16g\	prin-	16dd\	-cut	16g/JJ	16g/JJ
8c\L	.	8ee\L	16gg\LL	8c\	-ci-	8c\	-ci-	8g\	-ci-	8ee\	e-	8g/L	8g/L
.	.	.	16gg\	.	.	.	.	.	.	.	.	.	.
8G\J	.	8b\J	16gg\	8G\	-pi-	8d\	-pi-	8g\	-pi-	8b\	-rat	8g/J	8dd/J
*	*	*	*	*	*	*	*	*	*	*	*Xij	*	*
.	.	.	16gg\JJ	.	.	.	.	.	.	.	.	.	.
=64	=64	=64	=64	=64	=64	=64	=64	=64	=64	=64	=64	=64	=64
8c\L	.	8ee\L	16gg\LL	8c\	-o	8c\	-o	8g\	-o	8ee\	in	8cc\L	8ee\L
.	.	.	16gg\	.	.	.	.	.	.	.	.	.	.
8c\	.	8ee\	16gg\	8c\	et	8c\	et	8g\	et	8ee\	prin-	8cc\J	8ee\
.	.	.	16gg\JJ	.	.	.	.	.	.	.	.	.	.
*	*	*	*Xtremolo	*	*	*	*	*	*	*	*	*	*
8B\	.	8dd\	16gg\LL	8B\	nunc	8A\	nunc	8g\	nunc	8ee\	-ci-	8g/L	8dd\
.	.	.	16gg\	.	.	.	.	.	.	.	.	.	.
8G\J	#6|	8cc\J	16ff#X\	8A\	et	8B\	et	8f#X\	et	8cc\	-pi-	8c/J	8cc\J
.	.	.	16ff#\JJ	.	.	.	.	.	.	.	.	.	.
8B\L	.	8dd\L	16gg\LL	8B\	sem-	8B\	sem	8g\	sem	8dd\	-o	4g/	4dd\
.	.	.	16dd\	.	.	.	.	.	.	.	.	.	.
8G\J	.	8b\J	16dd\	8G\	-per	8B\	per	8d\	per	8b\	et	.	.
.	.	.	16dd\JJ	.	.	.	.	.	.	.	.	.	.
8D\L	.	8f#X/L	16dd\LL	8D\	et	8A\	et	8d\	et	8f#X/	nunc	4r	4r
.	.	.	16dd\	.	.	.	.	.	.	.	.	.	.
!	!	!	!	!	!	!LO:LB:g=original	!	!	!	!	!	!	!
16E\L	.	16g/L	16dd\	16E\L	in	16G/LL	in	8d\	in	16g\LL	et	.	.
16F#X\JJ	.	16a/JJ	16dd\JJ	16F#X\J	.	16F#X/JJ	.	.	.	16a\JJ	.	.	.
=65	=65	=65	=65	=65	=65	=65	=65	=65	=65	=65	=65	=65	=65
*	*	*	*tremolo	*	*	*	*	*	*	*	*	*	*
!LO:TX:a:t=P:problem=mixed beam	!	!	!	!	!	!	!	!	!	!	!	!	!
8G\L	.	8b\L	16dd\LL	8G\	sae-	8G/	sae-	8d\	sae-	8b\	sem-	8g/L	8dd\L
.	.	.	16dd\	.	.	.	.	.	.	.	.	.	.
8GG/J	.	8b\	16dd\	16GG/	-cu-	16G/	-cu-	16d\	-cu-	16b\	-per	16g/L	16dd\L
.	.	.	16dd\JJ	16GG/	-la	16G/	-la	16d\	-la	16b\	et	16g/JJ	16dd\JJ
8G\L	.	8b\	16dd\LL	8G\	sae-	8G/	sae-	8d\	sae-	8b\	in	8g/L	8dd\L
.	.	.	16dd\	.	.	.	.	.	.	.	.	.	.
8Fn\J	4 2	8b\J	16dd\	8Fn\	-cu-	8G/	-cu-	8d\	-cu-	8b\	-sae-	8g/J	8dd\J
.	.	.	16dd\JJ	.	.	.	.	.	.	.	.	.	.
*	*	*	*Xtremolo	*	*	*	*	*	*	*	*	*	*
!LO:TX:a:t=P:problem=mixed beam	!	!	!	!	!	!	!	!	!	!	!	!	!
8E\L	.	8cc\L	16ee\LL	8E\	-lo-	8G\	-lo-	8d\	-lo-	8cc\	-cu-	16ff\LL	16ee\LL
.	.	.	16cc\	.	.	.	.	.	.	.	.	16ee\	16gg\
!	!	!	!	!	!	!	!	!LO:N:vis=16	!	!	!	!	!
!	!	!	!	!	!	!	!	!LO:TX:t=P:problem=w takcie jest za mało wartości rytmicznych w stosunku do metrum	!	!	!	!	!
8F\	.	8a\	16cc\	8F\	-rum	8A\J	-rum	8d\	-rum	8cc\	-la	16dd\	16ff\
.	.	.	16cc\JJ	.	.	.	.	.	.	.	.	16cc\JJ	16ee\JJ
!	!	!	!	!LO:LB:g=original	!	!	!	!	!	!LO:LB:g=original	!	!	!
!	!	!	!	!LO:TX:a:t=P:problem=mixed beam	!	!	!	!	!	!	!	!	!
8G\	.	8g\	16g\LL	8G\L	a-	4G\	a-	4d\	a-	8g\L	sae-	8g/L	8.dd\L
.	.	.	16b\	.	.	.	.	.	.	.	.	.	.
8GG/J	.	8b\J	16b\	8GG/J	.	.	.	.	.	8b\J	-culo-	8g/J	.
.	.	.	16b\JJ	.	.	.	.	.	.	.	.	.	16dd\Jk
!	!	!	!	!	!	!	!	!LO:LB:g=original	!	!	!	!	!
!	!	!	!	!	!	!	!	!	!	!	!	!LO:LB:g=original	!
=66	=66	=66	=66	=66	=66	=66	=66	=66	=66	=66||	=66	=66	=66
*clefC1	*	*	*	*	*	*	*	*	*	*	*	*	*
*M12/8	*	*M12/8	*M12/8	*M12/8	*	*M12/8	*	*M12/8	*	*M12/8	*	*M12/8	*M12/8
!	!	!LO:TX:a:t=P:problem=mixed beam	!LO:TX:a:t=P:problem=mixed beam	!	!	!	!	!	!	!	!	!	!
8c/L	.	8cc\L	8cc\L	4C/	-men	8G/	-men	8c\	-men	8cc\	-rum	4e/	4cc\
8e/	.	8e/	8e/	.	.	8r	.	8e\L	a-	4r	.	.	.
8g/J	.	8g/J	8g/J	8r	.	8r	.	8g\J	.	.	.	8r	8r
!LO:LB:g=original	!	!	!	!	!	!	!	!	!	!	!	!	!
8cc\L	.	8cc\L	8cc\L	4r	.	4r	.	8cc\L	.	4r	.	4r	4r
8b\	.	8b\	8b\	.	.	.	.	8b\J	.	.	.	.	.
8cc\J	.	8cc\J	8cc\J	8r	.	8r	.	8cc\	-men	8r	.	8r	8r
!	!	!	!	!LO:N:vis=2	!	!LO:N:vis=2	!	!	!	!	!	!LO:N:vis=2	!LO:N:vis=2
!	!	!	!	!LO:TX:t=P:problem=w takcie jest za mało wartości rytmicznych w stosunku do metrum	!	!LO:TX:t=P:problem=w takcie jest za mało wartości rytmicznych w stosunku do metrum	!	!	!	!	!	!LO:TX:t=P:problem=w takcie jest za mało wartości rytmicznych w stosunku do metrum	!LO:TX:t=P:problem=w takcie jest za mało wartości rytmicznych w stosunku do metrum
8a\L	.	8a/L	8a/L	2.r	.	2.r	.	8a\L	a-	2.r	.	2.r	2.r
8g\	.	8g/	8g/	.	.	.	.	8g\	.	.	.	.	.
8f\J	.	8f/J	8f/J	.	.	.	.	8f\J	.	.	.	.	.
!	!	!LO:LB:g=original	!	!	!	!	!	!	!	!	!	!	!
16e/LL	.	16e/LL	16e/LL	.	.	.	.	16e\LL	.	.	.	.	.
16g/	.	16g/	16g/	.	.	.	.	16g\	.	.	.	.	.
16c/	.	16c/	16c/	.	.	.	.	16d\	.	.	.	.	.
16d/	.	16d/	16d/	.	.	.	.	16e\	.	.	.	.	.
16e/	.	16e/	16e/	.	.	.	.	16f\	.	.	.	.	.
16g/JJ	.	16f/JJ	16f/JJ	.	.	.	.	16g\JJ	.	.	.	.	.
!	!	!	!LO:LB:g=original	!	!	!	!	!	!	!	!	!	!
=67	=67	=67	=67	=67	=67	=67	=67	=67	=67	=67	=67	=67	=67
!	!	!	!	!	!	!	!	!	!	!LO:N:vis=2	!	!	!
!	!	!	!	!	!	!	!	!	!	!LO:TX:t=P:problem=w takcie jest za mało wartości rytmicznych w stosunku do metrum	!	!	!
16e/LL	.	16e/LL	16e/LL	0.r	.	0.r	.	16e\LL	.	2.r	.	0.r	0.r
16g/	.	16g/	16g/	.	.	.	.	16g\	.	.	.	.	.
16c/	.	16c/	16c/	.	.	.	.	16d\	.	.	.	.	.
16d/	.	16d/	16d/	.	.	.	.	16e\	.	.	.	.	.
16e/	.	16e/	16e/	.	.	.	.	16f\	.	.	.	.	.
16g/JJ	.	16f/JJ	16f/JJ	.	.	.	.	16g\JJ	.	.	.	.	.
16e/LL	.	16e/LL	16e/LL	.	.	.	.	16e\LL	.	.	.	.	.
16g/	.	16g/	16g/	.	.	.	.	16g\	.	.	.	.	.
16c/	.	16c/	16c/	.	.	.	.	16c\	.	.	.	.	.
16d/	.	16d/	16d/	.	.	.	.	16d\	.	.	.	.	.
16e/	.	16e/	16e/	.	.	.	.	16e\	.	.	.	.	.
!	!	!LO:SIC:s=16f#	!	!	!	!	!	!	!	!	!	!	!
16f#X/JJ	.	16f/JJ	16f#X/JJ	.	.	.	.	16f#X\JJ	.	.	.	.	.
*^	*	*	*	*	*	*	*	*	*	*	*	*	*
8ryy	8g/L	.	4g/	8g\L	.	.	.	.	4g\	.	8g\L	a-	.	.
!LO:N:vis=4	!	!	!	!	!	!	!	!	!	!	!	!	!	!
8g\	8b/	.	.	8b\	.	.	.	.	.	.	8b\	.	.	.
8f#X\	8dd/J	.	8f#X/	8dd\J	.	.	.	.	8f#X\	-men	8dd\J	.	.	.
!	!	!	!	!	!	!	!	!	!LO:SIC:t=w źródle brak tekstu pod nutą	!	!	!	!	!
8b\L	8gg/L	.	8b\L	8gg\L	.	.	.	.	8b\L	.	8gg\L	.	.	.
8a\	8ff#X/	.	8a\	8ff#X\	.	.	.	.	8a\J	a-	8ff#X\J	.	.	.
8b\J	8gg/J	.	8b\J	8gg\J	.	.	.	.	8b\	.	8gg\	-men	.	.
=68	=68	=68	=68	=68	=68	=68	=68	=68	=68	=68	=68	=68	=68	=68
8ee/L	8cc\L	.	8cc\L	8ee\L	.	.	.	.	8cc\L	.	8ee\L	a-	.	.
8dd/	8b\	.	8b\	8dd\	.	.	.	.	8b\	.	8dd\	.	.	.
8cc/J	8a\J	.	8a\J	8cc\J	.	.	.	.	8a\J	.	8cc\J	.	.	.
4b/	4g\	.	4g/	16b\LL	.	.	.	.	4g\	.	16b\LL	.	.	.
.	.	.	.	16dd\	.	.	.	.	.	.	16dd\	.	.	.
.	.	.	.	16g\	.	.	.	.	.	.	16g\	.	.	.
.	.	.	.	16a\	.	.	.	.	.	.	16a\	.	.	.
16b/LL	16g\LL	.	16g/L	16b\	.	.	.	.	16g\LL	.	16b\	.	.	.
16a#X/JJ	16f\JJ	.	16f#X/J	16cc\JJ	.	.	.	.	16f#X\JJ	.	16cc\JJ	.	.	.
8b/L	8g\L	.	8g/L	16b\LL	.	.	.	.	8g\	-men	16b\LL	.	.	.
.	.	.	.	16dd\	.	.	.	.	.	.	16dd\	.	.	.
8b/J	8g\J	.	8G/J	16g\	.	.	.	.	8G/	a-	16g\	.	.	.
.	.	.	.	16a\	.	.	.	.	.	.	16a\	.	.	.
!	!	!	!	!	!	!	!	!	!LO:LB:g=original	!	!	!	!	!
16b/L	16g\L	.	16g/L	16b\	.	.	.	.	16g\L	.	16b\	.	.	.
16a#/J	16f\J	.	16f#X/J	32cc\L	.	.	.	.	16f#X\J	.	16cc\JJ	.	.	.
.	.	.	.	32dd\JJJ	.	.	.	.	.	.	.	.	.	.
4b/	4g\	.	4g/	16b\LL	.	.	.	.	4g\	.	16b\LL	.	.	.
.	.	.	.	16dd\	.	.	.	.	.	.	16dd\	.	.	.
.	.	.	.	16b\	.	.	.	.	.	.	16g\	.	.	.
.	.	.	.	16g\	.	.	.	.	.	.	16a\	.	.	.
8a#/	8f\	.	8f#X/	16a\	.	.	.	.	8fn\	.	16b\	.	.	.
.	.	.	.	16b\JJ	.	.	.	.	.	.	16cc\JJ	.	.	.
*v	*v	*	*	*	*	*	*	*	*	*	*	*	*	*
*clefF4	*	*	*	*	*	*	*	*	*	*	*	*	*
=69	=69	=69	=69	=69	=69	=69	=69	=69	=69	=69	=69	=69	=69
8C\L	.	8e/L	4cc\	8C\L	a-	1.r	.	4e\	.	4cc\	.	4cc\	8ee\L
8E\	.	8g/	.	8E\	.	.	.	.	.	.	.	.	8cc\
8G\J	.	8g/J	8dd\	8G\J	.	.	.	8d\	-men	8b\	-men	8g/	8ee\J
8c\L	.	4g/	8ee\L	8c\L	.	.	.	4g\	a-	8ee\L	a-	8cc/L	8ee\L
8B\	.	.	8dd\	8B\J	.	.	.	.	.	8dd\	.	8g/	8dd\
8c\J	.	8g/	8ee\J	8c\	-men	.	.	8g\	-men	8ee\J	.	8cc/J	8ee\J
!LO:LB:g=original	!	!	!	!LO:SIC:t=w źródle brak tekstu pod nutą	!	!	!	!	!	!	!	!	!
8A\L	.	8cc\L	8ff\L	8A\L	.	.	.	8cc\L	a-	8ff\L	.	4c/	8ff\L
8G\	.	8b\	8ee\	8G\	a-	.	.	8b\	.	8ee\	.	.	8ee\
8F\J	.	8a\J	8dd\J	8F\J	.	.	.	8a\J	.	8dd\J	.	8r	8dd\J
16E\LL	.	4g/	4cc\	16E\LL	.	.	.	4g\	.	4cc\	.	4c/	4ee\
16G\	.	.	.	16G\	.	.	.	.	.	.	.	.	.
16C\	.	.	.	16C\	.	.	.	.	.	.	.	.	.
16D\	.	.	.	16D\	.	.	.	.	.	.	.	.	.
16E\	.	8g/	16cc\LL	16E\	.	.	.	8g\	.	16cc\LL	.	8r	8r
16G\JJ	.	.	16b\JJ	16F\JJ	.	.	.	.	.	16b\JJ	.	.	.
=70	=70	=70	=70	=70	=70	=70	=70	=70	=70	=70	=70	=70	=70
!	!	!	!	!	!	!LO:N:vis=2	!	!	!	!	!	!	!
!	!	!	!LO:TX:a:t=P:problem=mixed beam	!	!	!LO:TX:t=P:problem=w takcie jest za mało wartości rytmicznych w stosunku do metrum	!	!	!	!	!	!	!
16E\LL	.	4g/	8cc\L	16E\LL	.	2.r	.	4.g\	.	8cc\	-men	4c/	4ee\
!	!	!	!	!	!	!	!	!	!	!LO:LB:g=original	!	!	!
16G\	.	.	.	16G\	.	.	.	.	.	.	.	.	.
!	!	!	!	!	!	!	!	!	!	!LO:SIC:t=w źródle brak tekstu pod nutą	!	!	!
16C\	.	.	8c/J	16C\	.	.	.	.	.	8c/	.	.	.
16D\	.	.	.	16D\	.	.	.	.	.	.	.	.	.
16E\	.	8g/	16cc\LL	16E\	.	.	.	.	.	16cc\LL	a-	8r	8rdd
16G\JJ	.	.	16b\JJ	16F\JJ	.	.	.	.	.	16b\JJ	.	.	.
!	!	!	!LO:TX:a:t=P:problem=mixed beam	!	!	!	!	!	!	!	!	!	!
16E\LL	.	8.e/L	8cc\L	16E\LL	.	.	.	16g\LL	.	4.cc\	.	8cc\L	8ee\L
16G\	.	.	.	16G\	.	.	.	16f\	.	.	.	.	.
16C\	.	.	8c/	16C\	.	.	.	16en\	.	.	.	8cc\	8ee\
16D\	.	16f/L	.	16D\	.	.	.	16f\	.	.	.	.	.
16E\	.	16g/	8cc\J	16E\	.	.	.	16g\	.	.	.	8cc\J	8ee\J
16F#X\JJ	.	16a/JJ	.	16F#X\JJ	.	.	.	16a\JJ	.	.	.	.	.
!	!	!	!	!	!	!	!	!	!	!	!	!	!LO:TX:a:t=P:problem= niewyraźny zapis
!	!	!	!LO:LB:g=original	!	!	!	!	!	!	!	!	!	!
4G\	.	4d/	4b\	4G\	-men	8G\L	a-	4.d\	.	4b\	-men	8g/L	4dd\
.	.	.	.	.	.	8B\	.	.	.	.	.	8g/	.
8F#X\	.	8d/	8dd\	8F#X\	a-	8d\J	.	.	.	8r	.	8g/J	8r
!	!	!LO:LB:g=original	!	!	!	!	!	!	!	!	!	!	!
8B\L	.	8dd\L	8gg\L	8B\L	.	8g\L	.	8d\L	.	4r	.	8g/L	8dd\L
8A\	.	8cc\	8ff#X\	8A\J	.	8f#X\	.	8c\	.	.	.	8cc/	8dd\
8B\J	.	8dd\J	8gg\J	8B\	.	8g\J	.	8d\J	.	8r	.	8g/J	8dd\J
=71	=71	=71	=71	=71	=71	=71	=71	=71	=71	=71	=71	=71	=71
8c\L	.	4g/	8ee\L	8c\L	.	8e\L	.	4g\	-men	4r	.	8cc/L	8ee\L
8B\	.	.	8dd\	8B\	.	8d\	.	.	.	.	.	8g/	8dd\
8A\J	#6|	8f#X/	8cc\J	8A\J	.	8c\J	.	8f#X\	a-	8r	.	8c/J	8cc\J
4G\	.	4g/	4b\	4G\	.	16B\LL	.	4g\	.	8r	.	4g/	4dd\
.	.	.	.	.	.	16d\	.	.	.	.	.	.	.
.	.	.	.	.	.	16G\	.	.	.	8r	.	.	.
.	.	.	.	.	.	16A\	.	.	.	.	.	.	.
16G\LL	.	16b/LL	8dd\	16G\LL	.	16B\	.	16b\LL	.	8dd\	a-	8r	8r
16F#X\JJ	.	16a/JJ	.	16F#X\JJ	.	16c\JJ	.	16a\JJ	.	.	.	.	.
4G\	.	8b\L	4dd\	8G\	.	16B\LL	.	8b\	.	4dd\	.	4g/	4dd\
.	.	.	.	.	.	16d\	.	.	.	.	.	.	.
.	.	8b\	.	8GG/	.	16G\	.	8b\	.	.	.	.	.
.	.	.	.	.	.	16A\	.	.	.	.	.	.	.
!	!	!	!	!LO:LB:g=original	!	!	!	!	!	!	!	!	!
8GG/	.	16b\L	8r	16G\LL	.	16B\	.	16b\LL	.	8dd\	-men	8r	8r
.	.	16b\JJ	.	16F#X\JJ	.	16c\JJ	.	16a\JJ	.	.	.	.	.
!	!	!	!	!	!	!LO:LB:g=original	!	!	!	!	!	!	!
4G\	.	8b\L	8.dd\L	4G\	.	16B\LL	.	4b\	.	8.dd\L	a-	8g/L	8dd\L
.	.	.	.	.	.	16d\	.	.	.	.	.	.	.
.	.	16g\L	.	.	.	16B\	.	.	.	.	.	8g/	8dd\
.	.	16a\J	16b\L	.	.	16G\	.	.	.	16b\L	.	.	.
8Fn\	4 2	8b\J	16cc\	8Fn\	.	16A\	.	8a\	-men	16cc\	.	8g/J	8dd\J
.	.	.	16dd\JJ	.	.	16B\JJ	.	.	.	16dd\JJ	.	.	.
!	!	!	!	!	!	!	!	!LO:LB:g=original	!	!	!	!	!LO:LB:g=original
=72	=72	=72	=72	=72	=72	=72	=72	=72	=72	=72	=72	=72	=72
4E\	.	4cc\	16ee\LL	4E\	-men	8c\	.	4g\	a-	16dd\LL	.	4cc\	4ee\
.	.	.	16gg\	.	.	.	.	.	.	16gg\	.	.	.
.	.	.	16cc\	.	.	16e\LL	.	.	.	16cc\	.	.	.
.	.	.	16dd\	.	.	16d\JJ	.	.	.	16dd\	.	.	.
16c\LL	.	8r	16ee\	16c\LL	a-	8e\	.	8g\	-men-	16ee\	.	8r	8r
16B\JJ	.	.	16gg\JJ	16B\JJ	.	.	.	.	.	16gg\JJ	.	.	.
!LO:TX:a:t=P:problem=mixed beam	!	!	!	!	!	!	!	!	!	!	!	!	!
8c\L	.	4g/	16ee\LL	8c\	.	8e\	.	4.g\	.	16dd\LL	.	4cc\	4ee\
.	.	.	16gg\	.	.	.	.	.	.	16gg\	.	.	.
8C/J	.	.	16cc\	8C/	-men	16e\LL	.	.	.	16cc\	.	.	.
.	.	.	16dd\	.	.	16d\JJ	.	.	.	16dd\	.	.	.
16c\LL	.	8r	16ee\	16c\LL	a-	8c\L	.	.	.	16ee\	.	8r	8r
16B\JJ	.	.	16gg\JJ	16B\JJ	.	.	.	.	.	16gg\JJ	.	.	.
8c\L	.	4g/	8ee\L	8c\L	.	8B\J	.	4g\	.	8ee\L	.	8cc/L	8ee\L
8G\	.	.	8dd\	8G\	.	8B\	.	.	.	8dd\	.	8g/	8dd\
8A\J	.	8e/	8cc\J	8A\J	.	8A\	.	8e\	.	8cc\J	.	8c/J	8cc\J
!LO:TX:a:t=P:problem=mixed beam	!	!	!	!LO:TX:a:t=P:problem=mixed beam	!	!LO:N:vis=4	!	!	!	!	!	!	!
!	!	!	!	!	!	!LO:TX:t=P:problem=w takcie jest za mało wartości rytmicznych w stosunku do metrum	!	!	!	!	!	!	!
8F\L	.	4c/	4cc\	8F\L	.	4.G/	.	4.d\	.	4cc\	.	8c/L	8ff\L
8G\	.	.	.	8G\	.	.	.	.	.	.	.	8g/	8.dd\
8GG/J	.	8g/	8b\	8GG/J	.	.	.	.	.	8b\	-men	8g/J	.
.	.	.	.	.	.	.	.	.	.	.	.	.	16dd\Jk
!LO:LB:g=original	!	!	!	!	!	!	!	!	!	!	!	!	!
=73	=73	=73	=73	=73	=73	=73	=73	=73	=73	=73	=73	=73	=73
4C/	.	4g/	16ee\LL	4C/	-men	8G/	men	4e\	-a-	16ee\LL	a-	4e/	4cc\
.	.	.	16gg\	.	.	.	.	.	.	16gg\	.	.	.
.	.	.	16cc\	.	.	16e\LL	a-	.	.	16cc\	.	.	.
.	.	.	16dd\	.	.	16d\JJ	.	.	.	16dd\	.	.	.
16c\LL	.	8r	16ee\	16c\LL	.	8e\	.	8g\	.	16ee\	.	8r	8r
16B\JJ	.	.	16gg\JJ	16B\JJ	.	.	.	.	.	16gg\JJ	.	.	.
!LO:TX:a:t=P:problem=mixed beam	!	!	!	!	!	!	!	!	!	!	!	!	!
8c\L	.	4g/	16ee\LL	8c\	a-	8e\	.	4.g\	.	16ee\LL	.	4cc\	4ee\
.	.	.	16gg\	.	.	.	.	.	.	16gg\	.	.	.
8C/J	.	.	16cc\	8C/	.	16e\LL	.	.	.	16cc\	.	.	.
.	.	.	16dd\	.	.	16d\JJ	.	.	.	16dd\	.	.	.
16c\LL	.	8r	16ee\	16c\LL	.	8c\L	.	.	.	16ee\	.	8r	8r
16B\JJ	.	.	16gg\JJ	16B\JJ	.	.	.	.	.	16gg\JJ	.	.	.
8c\L	.	4g/	8ee\L	8c\L	.	8B\J	.	8g\	.	8ee\L	.	8cc/L	8ee\L
8G\	.	.	8dd\	8G\	.	8A\	.	8e\	.	8dd\	.	8g/	8dd\
8A\J	.	8e/	8cc\J	8A\J	.	8A\	.	8e\	.	8cc\J	.	8e/J	8cc\J
!	!	!	!	!LO:TX:a:t=P:problem=mixed beam	!	!LO:N:vis=4	!	!	!	!	!	!	!
!LO:TX:a:t=P:problem=mixed beam	!	!	!	!	!	!LO:TX:t=P:problem=w takcie jest za mało wartości rytmicznych w stosunku do metrum	!	!	!	!	!	!LO:LB:g=original	!
8F\L	.	4d/	4cc\	8F\L	.	4.G/	.	4.d\	.	4cc\	.	8c/L	8ff\L
8G\	.	.	.	8G\	.	.	.	.	.	.	.	8g/	8.dd\
8GG/J	.	8g/	8b\	8GG/J	.	.	.	.	.	8b\	.	8g/J	.
.	.	.	.	.	.	.	.	.	.	.	.	.	16dd\Jk
!	!	!	!	!	!	!	!	!	!	!LO:PB:g=original	!	!	!
=74	=74	=74	=74	=74	=74	=74	=74	=74	=74	=74	=74	=74	=74
!	!	!	!	!	!	!LO:TX:a:t=P:problem=niewidoczny tekst w takcie	!	!	!	!	!	!	!
8C\L	.	4e/	8cc\	8C/	men	8G/	-men	4e\	-men	8cc\	-men	8e/	8cc\
8r	.	.	8r	8r	.	4r	.	.	.	8r	.	8r	8r
*	*	*	*	*	*ij	*	*	*	*	*	*ij	*	*
!	!	!	!LO:LB:g=original	!	!	!	!	!	!	!	!	!	!
8B\J	.	8r	8cc\	8B\	a-	.	.	8r	.	8dd\	a-	8g/	8dd\
8c\L	.	8g/L	8dd\	8c\	-men	8B\	a-	8g\	a-	8ee\	-men	8r	8ee\
*	*	*	*	*	*Xij	*	*	*	*	*	*Xij	*	*
8r	.	8g/J	8r	8r	.	8c\	-men	8g\	-men	8r	.	8g/	8r
*	*	*	*	*	*ij	*	*ij	*	*ij	*	*ij	*	*
8E\J	.	8r	8cc\	8E\	a-	8r	.	8r	.	8cc\	a-	8e/	8cc\
8F\L	.	8g/L	8cc\	4F\	-men	8e\	a-	8g\	a-	8cc\	-men	8r	8cc\
*	*	*	*	*	*Xij	*	*	*	*	*	*Xij	*	*
8r	.	8a/J	8r	.	.	8d\	-men	8a\	-men	8r	.	8c/	8r
*	*	*	*	*	*	*	*Xij	*	*Xij	*	*	*	*
8G\J	.	8r	8b\	8r	.	8r	.	8r	.	8b\	a-	8g/	8g/
8C/	.	8d/L	8cc\	8G\	a-	8d\	a-	8g\	a-	8dd\	-men	8e/	8g/
!	!	!	!	!	!	!	!	!	!	!LO:N:vis=8	!	!	!
!	!	!	!	!	!	!	!	!	!	!LO:TX:t=P:problem=w takcie jest za mało wartości rytmicznych w stosunku do metrum	!	!	!
4r	.	8e/J	4r	4C/	-men	8e\	-men	8g\	-men	4r	.	8r	4r
.	.	8r	.	.	.	8r	.	8r	.	.	.	8r	.
==	==	==	==	==	==	==	==	==	==	==	==	==	==
*-	*-	*-	*-	*-	*-	*-	*-	*-	*-	*-	*-	*-	*-
!!!system-decoration: s1,s2,s3,s4,s5,s6,s7,s8,s9
!!!RDF**kern: > = above
!!!RDF**kern: < = below
!!!RDF**kern: N = linked
!!!RDF**dynam: < = "cresc." fontstyle="bold-italic"
!!!RDF**dynam: > = "dim." fontstyle="bold-italic"
!!!ENC: Mateusz Mrugas
!!!END: 2020-09-29
!!!ENC: Andrzej Gręziak
!!!END: 2020-04-23
